(G-CODE GENERATED BY FLATCAM v8.993 - www.flatcam.org - Version Date: 2020/06/05)

(Name: esp12-magicfit2-controller-pcb-B_Cu.gbr_iso_combined_cnc)
(Type: G-code from Geometry)
(Units: MM)

(Created on Saturday, 20 September 2025 at 20:57)

(This preprocessor is used with a motion controller loaded with GRBL firmware.)
(It is configured to be compatible with almost any version of GRBL firmware.)

(TOOL DIAMETER: 0.39 mm)
(Feedrate_XY: 120.0 mm/min)
(Feedrate_Z: 60.0 mm/min)
(Feedrate rapids 1500.0 mm/min)

(Z_Cut: -0.04 mm)
(Z_Move: 2.0 mm)
(Z Start: None mm)
(Z End: 15.0 mm)
(Steps per circle: 64)
(Preprocessor Geometry: grbl_11)

(X range:   -0.2495 ...   30.7895  mm)
(Y range:   -0.7095 ...   48.1095  mm)

(Spindle Speed: 10000 RPM)
G21
G90
G17
G94




G01 F120.00
G00 Z2.0000

M03 S10000
G00 X1.2645 Y3.1474
G01 F60.00
G01 Z-0.0400
G01 F120.00
G01 X1.2645 Y1.0726 F120.00
G01 X1.2672 Y1.0477 F120.00
G01 X1.2991 Y0.9621 F120.00
G01 X1.3518 Y0.8918 F120.00
G01 X1.4221 Y0.8391 F120.00
G01 X1.5077 Y0.8072 F120.00
G01 X1.5326 Y0.8045 F120.00
G01 X3.6074 Y0.8045 F120.00
G01 X3.6323 Y0.8072 F120.00
G01 X3.7179 Y0.8391 F120.00
G01 X3.7882 Y0.8918 F120.00
G01 X3.8498 Y0.9739 F120.00
G01 X3.8583 Y0.9873 F120.00
G01 X3.8701 Y1.0025 F120.00
G01 X3.8799 Y1.0131 F120.00
G01 X3.8871 Y1.0200 F120.00
G01 X3.9331 Y1.0669 F120.00
G01 X3.9440 Y1.0764 F120.00
G01 X3.9597 Y1.0877 F120.00
G01 X3.9722 Y1.0952 F120.00
G01 X3.9852 Y1.1017 F120.00
G01 X3.9986 Y1.1072 F120.00
G01 X4.0124 Y1.1117 F120.00
G01 X4.0994 Y1.1319 F120.00
G01 X4.1186 Y1.1344 F120.00
G01 X4.1331 Y1.1350 F120.00
G01 X4.1476 Y1.1346 F120.00
G01 X4.1620 Y1.1330 F120.00
G01 X4.1763 Y1.1304 F120.00
G01 X4.1857 Y1.1281 F120.00
G01 X4.1996 Y1.1237 F120.00
G01 X4.2654 Y1.1002 F120.00
G01 X4.2783 Y1.0951 F120.00
G01 X4.2949 Y1.0868 F120.00
G01 X4.3107 Y1.0770 F120.00
G01 X4.4258 Y0.9934 F120.00
G01 X4.6089 Y0.9001 F120.00
G01 X4.8043 Y0.8366 F120.00
G01 X5.0072 Y0.8045 F120.00
G01 X5.2127 Y0.8045 F120.00
G01 X5.4157 Y0.8366 F120.00
G01 X5.6111 Y0.9001 F120.00
G01 X5.7942 Y0.9934 F120.00
G01 X5.9605 Y1.1142 F120.00
G01 X6.1058 Y1.2595 F120.00
G01 X6.1253 Y1.2862 F120.00
G01 X6.1494 Y1.3145 F120.00
G01 X6.1631 Y1.3281 F120.00
G01 X6.1781 Y1.3403 F120.00
G01 X6.1900 Y1.3484 F120.00
G01 X6.2026 Y1.3556 F120.00
G01 X6.2644 Y1.3882 F120.00
G01 X6.2819 Y1.3964 F120.00
G01 X6.3002 Y1.4028 F120.00
G01 X6.3190 Y1.4074 F120.00
G01 X6.3382 Y1.4100 F120.00
G01 X6.3576 Y1.4108 F120.00
G01 X6.3721 Y1.4101 F120.00
G01 X6.4417 Y1.4041 F120.00
G01 X6.4561 Y1.4023 F120.00
G01 X6.4656 Y1.4005 F120.00
G01 X6.4843 Y1.3955 F120.00
G01 X6.5025 Y1.3887 F120.00
G01 X6.5198 Y1.3802 F120.00
G01 X6.5322 Y1.3726 F120.00
G01 X6.5441 Y1.3642 F120.00
G01 X6.5994 Y1.3215 F120.00
G01 X6.6066 Y1.3157 F120.00
G01 X6.6169 Y1.3063 F120.00
G01 X6.6265 Y1.2962 F120.00
G01 X6.6324 Y1.2891 F120.00
G01 X6.6542 Y1.2595 F120.00
G01 X6.7995 Y1.1142 F120.00
G01 X6.9658 Y0.9934 F120.00
G01 X7.1489 Y0.9001 F120.00
G01 X7.3443 Y0.8366 F120.00
G01 X7.5472 Y0.8045 F120.00
G01 X7.7527 Y0.8045 F120.00
G01 X7.9557 Y0.8366 F120.00
G01 X8.1511 Y0.9001 F120.00
G01 X8.3342 Y0.9934 F120.00
G01 X8.5005 Y1.1142 F120.00
G01 X8.6458 Y1.2595 F120.00
G01 X8.6653 Y1.2862 F120.00
G01 X8.6894 Y1.3145 F120.00
G01 X8.7031 Y1.3281 F120.00
G01 X8.7181 Y1.3403 F120.00
G01 X8.7300 Y1.3484 F120.00
G01 X8.7426 Y1.3556 F120.00
G01 X8.8044 Y1.3882 F120.00
G01 X8.8219 Y1.3964 F120.00
G01 X8.8402 Y1.4028 F120.00
G01 X8.8590 Y1.4074 F120.00
G01 X8.8782 Y1.4100 F120.00
G01 X8.8976 Y1.4108 F120.00
G01 X8.9121 Y1.4101 F120.00
G01 X8.9817 Y1.4041 F120.00
G01 X8.9961 Y1.4023 F120.00
G01 X9.0056 Y1.4005 F120.00
G01 X9.0243 Y1.3955 F120.00
G01 X9.0380 Y1.3906 F120.00
G01 X9.0556 Y1.3825 F120.00
G01 X9.0722 Y1.3726 F120.00
G01 X9.0841 Y1.3642 F120.00
G01 X9.1394 Y1.3215 F120.00
G01 X9.1466 Y1.3157 F120.00
G01 X9.1569 Y1.3063 F120.00
G01 X9.1665 Y1.2962 F120.00
G01 X9.1724 Y1.2891 F120.00
G01 X9.1942 Y1.2595 F120.00
G01 X9.3395 Y1.1142 F120.00
G01 X9.5058 Y0.9934 F120.00
G01 X9.6889 Y0.9001 F120.00
G01 X9.8843 Y0.8366 F120.00
G01 X10.0872 Y0.8045 F120.00
G01 X10.2927 Y0.8045 F120.00
G01 X10.4957 Y0.8366 F120.00
G01 X10.6911 Y0.9001 F120.00
G01 X10.8742 Y0.9934 F120.00
G01 X11.0405 Y1.1142 F120.00
G01 X11.1858 Y1.2595 F120.00
G01 X11.2053 Y1.2862 F120.00
G01 X11.2294 Y1.3145 F120.00
G01 X11.2431 Y1.3281 F120.00
G01 X11.2581 Y1.3403 F120.00
G01 X11.2700 Y1.3484 F120.00
G01 X11.2826 Y1.3556 F120.00
G01 X11.3444 Y1.3882 F120.00
G01 X11.3619 Y1.3964 F120.00
G01 X11.3802 Y1.4028 F120.00
G01 X11.3990 Y1.4074 F120.00
G01 X11.4182 Y1.4100 F120.00
G01 X11.4376 Y1.4108 F120.00
G01 X11.4521 Y1.4101 F120.00
G01 X11.5217 Y1.4041 F120.00
G01 X11.5361 Y1.4023 F120.00
G01 X11.5456 Y1.4005 F120.00
G01 X11.5643 Y1.3955 F120.00
G01 X11.5825 Y1.3887 F120.00
G01 X11.5956 Y1.3825 F120.00
G01 X11.6122 Y1.3726 F120.00
G01 X11.6241 Y1.3642 F120.00
G01 X11.6794 Y1.3215 F120.00
G01 X11.6901 Y1.3127 F120.00
G01 X11.6969 Y1.3063 F120.00
G01 X11.7065 Y1.2962 F120.00
G01 X11.7124 Y1.2891 F120.00
G01 X11.7342 Y1.2595 F120.00
G01 X11.8795 Y1.1142 F120.00
G01 X12.0458 Y0.9934 F120.00
G01 X12.2289 Y0.9001 F120.00
G01 X12.4243 Y0.8366 F120.00
G01 X12.6272 Y0.8045 F120.00
G01 X12.8327 Y0.8045 F120.00
G01 X13.0357 Y0.8366 F120.00
G01 X13.2311 Y0.9001 F120.00
G01 X13.4142 Y0.9934 F120.00
G01 X13.5805 Y1.1142 F120.00
G01 X13.7258 Y1.2595 F120.00
G01 X13.7453 Y1.2862 F120.00
G01 X13.7694 Y1.3145 F120.00
G01 X13.7831 Y1.3281 F120.00
G01 X13.7981 Y1.3403 F120.00
G01 X13.8100 Y1.3484 F120.00
G01 X13.8226 Y1.3556 F120.00
G01 X13.8844 Y1.3882 F120.00
G01 X13.9019 Y1.3964 F120.00
G01 X13.9202 Y1.4028 F120.00
G01 X13.9390 Y1.4074 F120.00
G01 X13.9582 Y1.4100 F120.00
G01 X13.9776 Y1.4108 F120.00
G01 X13.9921 Y1.4101 F120.00
G01 X14.0617 Y1.4041 F120.00
G01 X14.0761 Y1.4023 F120.00
G01 X14.0856 Y1.4005 F120.00
G01 X14.0997 Y1.3970 F120.00
G01 X14.1180 Y1.3906 F120.00
G01 X14.1356 Y1.3825 F120.00
G01 X14.1522 Y1.3726 F120.00
G01 X14.1641 Y1.3642 F120.00
G01 X14.2194 Y1.3215 F120.00
G01 X14.2266 Y1.3157 F120.00
G01 X14.2369 Y1.3063 F120.00
G01 X14.2465 Y1.2962 F120.00
G01 X14.2524 Y1.2891 F120.00
G01 X14.2742 Y1.2595 F120.00
G01 X14.4195 Y1.1142 F120.00
G01 X14.5858 Y0.9934 F120.00
G01 X14.7689 Y0.9001 F120.00
G01 X14.9643 Y0.8366 F120.00
G01 X15.1672 Y0.8045 F120.00
G01 X15.3727 Y0.8045 F120.00
G01 X15.5757 Y0.8366 F120.00
G01 X15.7711 Y0.9001 F120.00
G01 X15.9542 Y0.9934 F120.00
G01 X16.1205 Y1.1142 F120.00
G01 X16.2658 Y1.2595 F120.00
G01 X16.2853 Y1.2862 F120.00
G01 X16.3094 Y1.3145 F120.00
G01 X16.3231 Y1.3281 F120.00
G01 X16.3381 Y1.3403 F120.00
G01 X16.3500 Y1.3484 F120.00
G01 X16.3626 Y1.3556 F120.00
G01 X16.4244 Y1.3882 F120.00
G01 X16.4419 Y1.3964 F120.00
G01 X16.4602 Y1.4028 F120.00
G01 X16.4790 Y1.4074 F120.00
G01 X16.4982 Y1.4100 F120.00
G01 X16.5176 Y1.4108 F120.00
G01 X16.5321 Y1.4101 F120.00
G01 X16.6017 Y1.4041 F120.00
G01 X16.6113 Y1.4030 F120.00
G01 X16.6256 Y1.4005 F120.00
G01 X16.6443 Y1.3955 F120.00
G01 X16.6625 Y1.3887 F120.00
G01 X16.6756 Y1.3825 F120.00
G01 X16.6922 Y1.3726 F120.00
G01 X16.7041 Y1.3642 F120.00
G01 X16.7594 Y1.3215 F120.00
G01 X16.7666 Y1.3157 F120.00
G01 X16.7769 Y1.3063 F120.00
G01 X16.7834 Y1.2997 F120.00
G01 X16.7924 Y1.2891 F120.00
G01 X16.8142 Y1.2595 F120.00
G01 X16.9595 Y1.1142 F120.00
G01 X17.1258 Y0.9934 F120.00
G01 X17.3089 Y0.9001 F120.00
G01 X17.5043 Y0.8366 F120.00
G01 X17.7072 Y0.8045 F120.00
G01 X17.9128 Y0.8045 F120.00
G01 X18.1157 Y0.8366 F120.00
G01 X18.3111 Y0.9001 F120.00
G01 X18.4942 Y0.9934 F120.00
G01 X18.6605 Y1.1142 F120.00
G01 X18.8058 Y1.2595 F120.00
G01 X18.8253 Y1.2862 F120.00
G01 X18.8494 Y1.3145 F120.00
G01 X18.8631 Y1.3281 F120.00
G01 X18.8781 Y1.3403 F120.00
G01 X18.8900 Y1.3484 F120.00
G01 X18.9026 Y1.3556 F120.00
G01 X18.9644 Y1.3882 F120.00
G01 X18.9819 Y1.3964 F120.00
G01 X19.0002 Y1.4028 F120.00
G01 X19.0190 Y1.4074 F120.00
G01 X19.0382 Y1.4100 F120.00
G01 X19.0576 Y1.4108 F120.00
G01 X19.0721 Y1.4101 F120.00
G01 X19.1417 Y1.4041 F120.00
G01 X19.1561 Y1.4023 F120.00
G01 X19.1656 Y1.4005 F120.00
G01 X19.1797 Y1.3970 F120.00
G01 X19.1980 Y1.3906 F120.00
G01 X19.2156 Y1.3825 F120.00
G01 X19.2322 Y1.3726 F120.00
G01 X19.2441 Y1.3642 F120.00
G01 X19.2994 Y1.3215 F120.00
G01 X19.3101 Y1.3127 F120.00
G01 X19.3169 Y1.3063 F120.00
G01 X19.3234 Y1.2997 F120.00
G01 X19.3324 Y1.2891 F120.00
G01 X19.3542 Y1.2595 F120.00
G01 X19.4995 Y1.1142 F120.00
G01 X19.6658 Y0.9934 F120.00
G01 X19.8489 Y0.9001 F120.00
G01 X20.0443 Y0.8366 F120.00
G01 X20.2472 Y0.8045 F120.00
G01 X20.4527 Y0.8045 F120.00
G01 X20.6557 Y0.8366 F120.00
G01 X20.8511 Y0.9001 F120.00
G01 X21.0342 Y0.9934 F120.00
G01 X21.2005 Y1.1142 F120.00
G01 X21.3458 Y1.2595 F120.00
G01 X21.4666 Y1.4258 F120.00
G01 X21.5599 Y1.6089 F120.00
G01 X21.6234 Y1.8043 F120.00
G01 X21.6555 Y2.0073 F120.00
G01 X21.6555 Y2.2128 F120.00
G01 X21.6234 Y2.4157 F120.00
G01 X21.5599 Y2.6111 F120.00
G01 X21.4666 Y2.7942 F120.00
G01 X21.3458 Y2.9605 F120.00
G01 X21.2005 Y3.1058 F120.00
G01 X21.0342 Y3.2266 F120.00
G01 X20.8511 Y3.3199 F120.00
G01 X20.6557 Y3.3834 F120.00
G01 X20.4528 Y3.4155 F120.00
G01 X20.2472 Y3.4155 F120.00
G01 X20.0443 Y3.3834 F120.00
G01 X19.8489 Y3.3199 F120.00
G01 X19.6658 Y3.2266 F120.00
G01 X19.4995 Y3.1058 F120.00
G01 X19.3542 Y2.9605 F120.00
G01 X19.3313 Y2.9294 F120.00
G01 X19.3073 Y2.9020 F120.00
G01 X19.2933 Y2.8887 F120.00
G01 X19.2780 Y2.8769 F120.00
G01 X19.2658 Y2.8691 F120.00
G01 X19.2574 Y2.8644 F120.00
G01 X19.1956 Y2.8318 F120.00
G01 X19.1781 Y2.8236 F120.00
G01 X19.1598 Y2.8172 F120.00
G01 X19.1410 Y2.8126 F120.00
G01 X19.1218 Y2.8100 F120.00
G01 X19.1073 Y2.8092 F120.00
G01 X19.0879 Y2.8099 F120.00
G01 X19.0183 Y2.8159 F120.00
G01 X19.0039 Y2.8177 F120.00
G01 X18.9944 Y2.8195 F120.00
G01 X18.9757 Y2.8245 F120.00
G01 X18.9620 Y2.8294 F120.00
G01 X18.9444 Y2.8375 F120.00
G01 X18.9278 Y2.8474 F120.00
G01 X18.9159 Y2.8558 F120.00
G01 X18.8606 Y2.8985 F120.00
G01 X18.8499 Y2.9073 F120.00
G01 X18.8431 Y2.9137 F120.00
G01 X18.8366 Y2.9203 F120.00
G01 X18.8276 Y2.9309 F120.00
G01 X18.8058 Y2.9605 F120.00
G01 X18.6605 Y3.1058 F120.00
G01 X18.4942 Y3.2266 F120.00
G01 X18.3111 Y3.3199 F120.00
G01 X18.1157 Y3.3834 F120.00
G01 X17.9128 Y3.4155 F120.00
G01 X17.7072 Y3.4155 F120.00
G01 X17.5043 Y3.3834 F120.00
G01 X17.3089 Y3.3199 F120.00
G01 X17.1258 Y3.2266 F120.00
G01 X16.9595 Y3.1058 F120.00
G01 X16.8142 Y2.9605 F120.00
G01 X16.7913 Y2.9294 F120.00
G01 X16.7673 Y2.9020 F120.00
G01 X16.7533 Y2.8887 F120.00
G01 X16.7380 Y2.8769 F120.00
G01 X16.7258 Y2.8691 F120.00
G01 X16.7174 Y2.8644 F120.00
G01 X16.6556 Y2.8318 F120.00
G01 X16.6381 Y2.8236 F120.00
G01 X16.6198 Y2.8172 F120.00
G01 X16.6010 Y2.8126 F120.00
G01 X16.5866 Y2.8105 F120.00
G01 X16.5673 Y2.8092 F120.00
G01 X16.5479 Y2.8099 F120.00
G01 X16.4783 Y2.8159 F120.00
G01 X16.4687 Y2.8170 F120.00
G01 X16.4544 Y2.8195 F120.00
G01 X16.4357 Y2.8245 F120.00
G01 X16.4220 Y2.8294 F120.00
G01 X16.4044 Y2.8375 F120.00
G01 X16.3878 Y2.8474 F120.00
G01 X16.3759 Y2.8558 F120.00
G01 X16.3206 Y2.8985 F120.00
G01 X16.3099 Y2.9073 F120.00
G01 X16.3031 Y2.9137 F120.00
G01 X16.2966 Y2.9203 F120.00
G01 X16.2876 Y2.9309 F120.00
G01 X16.2658 Y2.9605 F120.00
G01 X16.1205 Y3.1058 F120.00
G01 X15.9542 Y3.2266 F120.00
G01 X15.7711 Y3.3199 F120.00
G01 X15.5757 Y3.3834 F120.00
G01 X15.3728 Y3.4155 F120.00
G01 X15.1672 Y3.4155 F120.00
G01 X14.9643 Y3.3834 F120.00
G01 X14.7689 Y3.3199 F120.00
G01 X14.5858 Y3.2266 F120.00
G01 X14.4195 Y3.1058 F120.00
G01 X14.2742 Y2.9605 F120.00
G01 X14.2513 Y2.9294 F120.00
G01 X14.2273 Y2.9020 F120.00
G01 X14.2133 Y2.8887 F120.00
G01 X14.1980 Y2.8769 F120.00
G01 X14.1900 Y2.8716 F120.00
G01 X14.1774 Y2.8644 F120.00
G01 X14.1156 Y2.8318 F120.00
G01 X14.0981 Y2.8236 F120.00
G01 X14.0798 Y2.8172 F120.00
G01 X14.0610 Y2.8126 F120.00
G01 X14.0418 Y2.8100 F120.00
G01 X14.0273 Y2.8092 F120.00
G01 X14.0079 Y2.8099 F120.00
G01 X13.9383 Y2.8159 F120.00
G01 X13.9287 Y2.8170 F120.00
G01 X13.9144 Y2.8195 F120.00
G01 X13.8957 Y2.8245 F120.00
G01 X13.8775 Y2.8313 F120.00
G01 X13.8602 Y2.8398 F120.00
G01 X13.8478 Y2.8474 F120.00
G01 X13.8359 Y2.8558 F120.00
G01 X13.7806 Y2.8985 F120.00
G01 X13.7699 Y2.9073 F120.00
G01 X13.7631 Y2.9137 F120.00
G01 X13.7566 Y2.9203 F120.00
G01 X13.7476 Y2.9309 F120.00
G01 X13.7258 Y2.9605 F120.00
G01 X13.5805 Y3.1058 F120.00
G01 X13.4142 Y3.2266 F120.00
G01 X13.2311 Y3.3199 F120.00
G01 X13.0357 Y3.3834 F120.00
G01 X12.8328 Y3.4155 F120.00
G01 X12.6272 Y3.4155 F120.00
G01 X12.4243 Y3.3834 F120.00
G01 X12.2289 Y3.3199 F120.00
G01 X12.0458 Y3.2266 F120.00
G01 X11.8795 Y3.1058 F120.00
G01 X11.7342 Y2.9605 F120.00
G01 X11.7113 Y2.9294 F120.00
G01 X11.6873 Y2.9020 F120.00
G01 X11.6733 Y2.8887 F120.00
G01 X11.6580 Y2.8769 F120.00
G01 X11.6500 Y2.8716 F120.00
G01 X11.6374 Y2.8644 F120.00
G01 X11.5756 Y2.8318 F120.00
G01 X11.5581 Y2.8236 F120.00
G01 X11.5398 Y2.8172 F120.00
G01 X11.5210 Y2.8126 F120.00
G01 X11.5018 Y2.8100 F120.00
G01 X11.4873 Y2.8092 F120.00
G01 X11.4679 Y2.8099 F120.00
G01 X11.3983 Y2.8159 F120.00
G01 X11.3887 Y2.8170 F120.00
G01 X11.3744 Y2.8195 F120.00
G01 X11.3557 Y2.8245 F120.00
G01 X11.3420 Y2.8294 F120.00
G01 X11.3244 Y2.8375 F120.00
G01 X11.3078 Y2.8474 F120.00
G01 X11.2959 Y2.8558 F120.00
G01 X11.2406 Y2.8985 F120.00
G01 X11.2334 Y2.9043 F120.00
G01 X11.2231 Y2.9137 F120.00
G01 X11.2135 Y2.9238 F120.00
G01 X11.2076 Y2.9309 F120.00
G01 X11.1858 Y2.9605 F120.00
G01 X11.0405 Y3.1058 F120.00
G01 X10.8742 Y3.2266 F120.00
G01 X10.6911 Y3.3199 F120.00
G01 X10.4957 Y3.3834 F120.00
G01 X10.2928 Y3.4155 F120.00
G01 X10.0872 Y3.4155 F120.00
G01 X9.8843 Y3.3834 F120.00
G01 X9.6889 Y3.3199 F120.00
G01 X9.5058 Y3.2266 F120.00
G01 X9.3395 Y3.1058 F120.00
G01 X9.1942 Y2.9605 F120.00
G01 X9.1713 Y2.9294 F120.00
G01 X9.1473 Y2.9020 F120.00
G01 X9.1333 Y2.8887 F120.00
G01 X9.1180 Y2.8769 F120.00
G01 X9.1058 Y2.8691 F120.00
G01 X9.0974 Y2.8644 F120.00
G01 X9.0356 Y2.8318 F120.00
G01 X9.0181 Y2.8236 F120.00
G01 X8.9998 Y2.8172 F120.00
G01 X8.9857 Y2.8136 F120.00
G01 X8.9666 Y2.8105 F120.00
G01 X8.9521 Y2.8094 F120.00
G01 X8.9424 Y2.8092 F120.00
G01 X8.9279 Y2.8099 F120.00
G01 X8.8583 Y2.8159 F120.00
G01 X8.8391 Y2.8185 F120.00
G01 X8.8203 Y2.8230 F120.00
G01 X8.8020 Y2.8294 F120.00
G01 X8.7844 Y2.8375 F120.00
G01 X8.7718 Y2.8447 F120.00
G01 X8.7559 Y2.8558 F120.00
G01 X8.7006 Y2.8985 F120.00
G01 X8.6934 Y2.9043 F120.00
G01 X8.6831 Y2.9137 F120.00
G01 X8.6735 Y2.9238 F120.00
G01 X8.6676 Y2.9309 F120.00
G01 X8.6458 Y2.9605 F120.00
G01 X8.5005 Y3.1058 F120.00
G01 X8.3342 Y3.2266 F120.00
G01 X8.1511 Y3.3199 F120.00
G01 X7.9557 Y3.3834 F120.00
G01 X7.7528 Y3.4155 F120.00
G01 X7.5472 Y3.4155 F120.00
G01 X7.3443 Y3.3834 F120.00
G01 X7.1489 Y3.3199 F120.00
G01 X6.9658 Y3.2266 F120.00
G01 X6.7995 Y3.1058 F120.00
G01 X6.6542 Y2.9605 F120.00
G01 X6.6313 Y2.9294 F120.00
G01 X6.6073 Y2.9020 F120.00
G01 X6.5933 Y2.8887 F120.00
G01 X6.5780 Y2.8769 F120.00
G01 X6.5700 Y2.8716 F120.00
G01 X6.5574 Y2.8644 F120.00
G01 X6.4956 Y2.8318 F120.00
G01 X6.4781 Y2.8236 F120.00
G01 X6.4644 Y2.8186 F120.00
G01 X6.4457 Y2.8136 F120.00
G01 X6.4266 Y2.8105 F120.00
G01 X6.4121 Y2.8094 F120.00
G01 X6.3976 Y2.8094 F120.00
G01 X6.3879 Y2.8099 F120.00
G01 X6.3183 Y2.8159 F120.00
G01 X6.2991 Y2.8185 F120.00
G01 X6.2803 Y2.8230 F120.00
G01 X6.2620 Y2.8294 F120.00
G01 X6.2444 Y2.8375 F120.00
G01 X6.2318 Y2.8447 F120.00
G01 X6.2159 Y2.8558 F120.00
G01 X6.1606 Y2.8985 F120.00
G01 X6.1534 Y2.9043 F120.00
G01 X6.1431 Y2.9137 F120.00
G01 X6.1366 Y2.9203 F120.00
G01 X6.1276 Y2.9309 F120.00
G01 X6.1058 Y2.9605 F120.00
G01 X5.9605 Y3.1058 F120.00
G01 X5.7942 Y3.2266 F120.00
G01 X5.6111 Y3.3199 F120.00
G01 X5.4157 Y3.3834 F120.00
G01 X5.2128 Y3.4155 F120.00
G01 X5.0072 Y3.4155 F120.00
G01 X4.8043 Y3.3834 F120.00
G01 X4.6089 Y3.3199 F120.00
G01 X4.4258 Y3.2266 F120.00
G01 X4.3110 Y3.1432 F120.00
G01 X4.2861 Y3.1274 F120.00
G01 X4.2732 Y3.1203 F120.00
G01 X4.2644 Y3.1162 F120.00
G01 X4.2461 Y3.1093 F120.00
G01 X4.2320 Y3.1053 F120.00
G01 X4.1542 Y3.0885 F120.00
G01 X4.1446 Y3.0869 F120.00
G01 X4.1302 Y3.0855 F120.00
G01 X4.1108 Y3.0852 F120.00
G01 X4.0963 Y3.0863 F120.00
G01 X4.0772 Y3.0894 F120.00
G01 X4.0631 Y3.0929 F120.00
G01 X4.0494 Y3.0975 F120.00
G01 X3.9794 Y3.1238 F120.00
G01 X3.9619 Y3.1320 F120.00
G01 X3.9493 Y3.1392 F120.00
G01 X3.9334 Y3.1502 F120.00
G01 X3.9222 Y3.1595 F120.00
G01 X3.9151 Y3.1662 F120.00
G01 X3.9021 Y3.1805 F120.00
G01 X3.8874 Y3.1998 F120.00
G01 X3.8780 Y3.2088 F120.00
G01 X3.8684 Y3.2195 F120.00
G01 X3.8596 Y3.2308 F120.00
G01 X3.8497 Y3.2461 F120.00
G01 X3.7882 Y3.3282 F120.00
G01 X3.7179 Y3.3809 F120.00
G01 X3.6323 Y3.4128 F120.00
G01 X3.6074 Y3.4155 F120.00
G01 X1.5326 Y3.4155 F120.00
G01 X1.5077 Y3.4128 F120.00
G01 X1.4221 Y3.3809 F120.00
G01 X1.3518 Y3.3282 F120.00
G01 X1.2991 Y3.2579 F120.00
G01 X1.2672 Y3.1723 F120.00
G01 X1.2645 Y3.1474 F120.00
G00 Z2.0000
G00 X3.7650 Y3.1100
G01 F60.00
G01 Z-0.0400
G01 F120.00
G01 X3.7641 Y3.1291 F120.00
G01 X3.7613 Y3.1480 F120.00
G01 X3.7579 Y3.1620 F120.00
G01 X3.7519 Y3.1802 F120.00
G01 X3.7442 Y3.1977 F120.00
G01 X3.7347 Y3.2143 F120.00
G01 X3.7237 Y3.2300 F120.00
G01 X3.7112 Y3.2445 F120.00
G01 X3.6974 Y3.2577 F120.00
G01 X3.6823 Y3.2694 F120.00
G01 X3.6661 Y3.2797 F120.00
G01 X3.6534 Y3.2863 F120.00
G01 X3.6357 Y3.2936 F120.00
G01 X3.6174 Y3.2992 F120.00
G01 X3.6033 Y3.3021 F120.00
G01 X3.5843 Y3.3045 F120.00
G01 X3.5700 Y3.3050 F120.00
G01 X1.5652 Y3.3049 F120.00
G01 X1.5461 Y3.3035 F120.00
G01 X1.5320 Y3.3013 F120.00
G01 X1.5180 Y3.2979 F120.00
G01 X1.4998 Y3.2919 F120.00
G01 X1.4823 Y3.2842 F120.00
G01 X1.4657 Y3.2747 F120.00
G01 X1.4500 Y3.2637 F120.00
G01 X1.4390 Y3.2545 F120.00
G01 X1.4288 Y3.2445 F120.00
G01 X1.4223 Y3.2374 F120.00
G01 X1.4106 Y3.2223 F120.00
G01 X1.4003 Y3.2061 F120.00
G01 X1.3917 Y3.1890 F120.00
G01 X1.3848 Y3.1712 F120.00
G01 X1.3797 Y3.1527 F120.00
G01 X1.3771 Y3.1386 F120.00
G01 X1.3759 Y3.1291 F120.00
G01 X1.3750 Y3.1100 F120.00
G01 X1.3751 Y1.1052 F120.00
G01 X1.3759 Y1.0909 F120.00
G01 X1.3787 Y1.0720 F120.00
G01 X1.3834 Y1.0534 F120.00
G01 X1.3881 Y1.0398 F120.00
G01 X1.3937 Y1.0266 F120.00
G01 X1.4027 Y1.0098 F120.00
G01 X1.4134 Y0.9938 F120.00
G01 X1.4255 Y0.9790 F120.00
G01 X1.4390 Y0.9655 F120.00
G01 X1.4538 Y0.9534 F120.00
G01 X1.4698 Y0.9427 F120.00
G01 X1.4781 Y0.9380 F120.00
G01 X1.4910 Y0.9317 F120.00
G01 X1.5088 Y0.9248 F120.00
G01 X1.5273 Y0.9197 F120.00
G01 X1.5461 Y0.9165 F120.00
G01 X1.5604 Y0.9152 F120.00
G01 X1.5700 Y0.9150 F120.00
G01 X3.5748 Y0.9151 F120.00
G01 X3.5939 Y0.9165 F120.00
G01 X3.6127 Y0.9197 F120.00
G01 X3.6312 Y0.9248 F120.00
G01 X3.6446 Y0.9298 F120.00
G01 X3.6577 Y0.9358 F120.00
G01 X3.6743 Y0.9453 F120.00
G01 X3.6900 Y0.9563 F120.00
G01 X3.7010 Y0.9655 F120.00
G01 X3.7145 Y0.9790 F120.00
G01 X3.7266 Y0.9938 F120.00
G01 X3.7373 Y1.0098 F120.00
G01 X3.7463 Y1.0266 F120.00
G01 X3.7519 Y1.0398 F120.00
G01 X3.7552 Y1.0488 F120.00
G01 X3.7603 Y1.0673 F120.00
G01 X3.7635 Y1.0861 F120.00
G01 X3.7649 Y1.1052 F120.00
G01 X3.7650 Y3.1100 F120.00
G00 Z2.0000
G00 X6.2175 Y2.5584
G01 F60.00
G01 Z-0.0400
G01 F120.00
G01 X6.2102 Y2.5761 F120.00
G01 X6.1639 Y2.6733 F120.00
G01 X6.1036 Y2.7739 F120.00
G01 X6.0337 Y2.8681 F120.00
G01 X5.9550 Y2.9550 F120.00
G01 X5.8681 Y3.0337 F120.00
G01 X5.7739 Y3.1036 F120.00
G01 X5.6733 Y3.1639 F120.00
G01 X5.5673 Y3.2140 F120.00
G01 X5.4569 Y3.2535 F120.00
G01 X5.3431 Y3.2820 F120.00
G01 X5.2271 Y3.2992 F120.00
G01 X5.1100 Y3.3050 F120.00
G01 X4.9929 Y3.2992 F120.00
G01 X4.8769 Y3.2820 F120.00
G01 X4.7631 Y3.2535 F120.00
G01 X4.6527 Y3.2140 F120.00
G01 X4.5467 Y3.1639 F120.00
G01 X4.4461 Y3.1036 F120.00
G01 X4.3519 Y3.0337 F120.00
G01 X4.2650 Y2.9550 F120.00
G01 X4.1863 Y2.8681 F120.00
G01 X4.1164 Y2.7739 F120.00
G01 X4.0561 Y2.6733 F120.00
G01 X4.0060 Y2.5673 F120.00
G01 X3.9665 Y2.4569 F120.00
G01 X3.9380 Y2.3431 F120.00
G01 X3.9208 Y2.2271 F120.00
G01 X3.9150 Y2.1100 F120.00
G01 X3.9208 Y1.9929 F120.00
G01 X3.9380 Y1.8769 F120.00
G01 X3.9665 Y1.7631 F120.00
G01 X4.0060 Y1.6527 F120.00
G01 X4.0561 Y1.5467 F120.00
G01 X4.1164 Y1.4461 F120.00
G01 X4.1863 Y1.3519 F120.00
G01 X4.2650 Y1.2650 F120.00
G01 X4.3519 Y1.1863 F120.00
G01 X4.4461 Y1.1164 F120.00
G01 X4.5467 Y1.0561 F120.00
G01 X4.6527 Y1.0060 F120.00
G01 X4.7631 Y0.9665 F120.00
G01 X4.8769 Y0.9380 F120.00
G01 X4.9929 Y0.9208 F120.00
G01 X5.1100 Y0.9150 F120.00
G01 X5.2271 Y0.9208 F120.00
G01 X5.3431 Y0.9380 F120.00
G01 X5.4569 Y0.9665 F120.00
G01 X5.5673 Y1.0060 F120.00
G01 X5.6733 Y1.0561 F120.00
G01 X5.7739 Y1.1164 F120.00
G01 X5.8681 Y1.1863 F120.00
G01 X5.9550 Y1.2650 F120.00
G01 X6.0337 Y1.3519 F120.00
G01 X6.1036 Y1.4461 F120.00
G01 X6.1639 Y1.5467 F120.00
G01 X6.2140 Y1.6527 F120.00
G01 X6.2535 Y1.7631 F120.00
G01 X6.2820 Y1.8769 F120.00
G01 X6.2992 Y1.9929 F120.00
G01 X6.3050 Y2.1100 F120.00
G01 X6.2992 Y2.2271 F120.00
G01 X6.2820 Y2.3431 F120.00
G01 X6.2535 Y2.4569 F120.00
G01 X6.2175 Y2.5584 F120.00
G00 Z2.0000
G00 X8.7575 Y2.5584
G01 F60.00
G01 Z-0.0400
G01 F120.00
G01 X8.7502 Y2.5761 F120.00
G01 X8.7039 Y2.6733 F120.00
G01 X8.6436 Y2.7739 F120.00
G01 X8.5737 Y2.8681 F120.00
G01 X8.4950 Y2.9550 F120.00
G01 X8.4081 Y3.0337 F120.00
G01 X8.3139 Y3.1036 F120.00
G01 X8.2133 Y3.1639 F120.00
G01 X8.1073 Y3.2140 F120.00
G01 X7.9969 Y3.2535 F120.00
G01 X7.8831 Y3.2820 F120.00
G01 X7.7671 Y3.2992 F120.00
G01 X7.6500 Y3.3050 F120.00
G01 X7.5329 Y3.2992 F120.00
G01 X7.4169 Y3.2820 F120.00
G01 X7.3031 Y3.2535 F120.00
G01 X7.1927 Y3.2140 F120.00
G01 X7.0867 Y3.1639 F120.00
G01 X6.9861 Y3.1036 F120.00
G01 X6.8919 Y3.0337 F120.00
G01 X6.8050 Y2.9550 F120.00
G01 X6.7263 Y2.8681 F120.00
G01 X6.6564 Y2.7739 F120.00
G01 X6.5961 Y2.6733 F120.00
G01 X6.5460 Y2.5673 F120.00
G01 X6.5065 Y2.4569 F120.00
G01 X6.4780 Y2.3431 F120.00
G01 X6.4608 Y2.2271 F120.00
G01 X6.4550 Y2.1100 F120.00
G01 X6.4608 Y1.9929 F120.00
G01 X6.4780 Y1.8769 F120.00
G01 X6.5065 Y1.7631 F120.00
G01 X6.5460 Y1.6527 F120.00
G01 X6.5961 Y1.5467 F120.00
G01 X6.6564 Y1.4461 F120.00
G01 X6.7263 Y1.3519 F120.00
G01 X6.8050 Y1.2650 F120.00
G01 X6.8919 Y1.1863 F120.00
G01 X6.9861 Y1.1164 F120.00
G01 X7.0867 Y1.0561 F120.00
G01 X7.1927 Y1.0060 F120.00
G01 X7.3031 Y0.9665 F120.00
G01 X7.4169 Y0.9380 F120.00
G01 X7.5329 Y0.9208 F120.00
G01 X7.6500 Y0.9150 F120.00
G01 X7.7671 Y0.9208 F120.00
G01 X7.8831 Y0.9380 F120.00
G01 X7.9969 Y0.9665 F120.00
G01 X8.1073 Y1.0060 F120.00
G01 X8.2133 Y1.0561 F120.00
G01 X8.3139 Y1.1164 F120.00
G01 X8.4081 Y1.1863 F120.00
G01 X8.4950 Y1.2650 F120.00
G01 X8.5737 Y1.3519 F120.00
G01 X8.6436 Y1.4461 F120.00
G01 X8.7039 Y1.5467 F120.00
G01 X8.7540 Y1.6527 F120.00
G01 X8.7935 Y1.7631 F120.00
G01 X8.8220 Y1.8769 F120.00
G01 X8.8392 Y1.9929 F120.00
G01 X8.8450 Y2.1100 F120.00
G01 X8.8392 Y2.2271 F120.00
G01 X8.8220 Y2.3431 F120.00
G01 X8.7935 Y2.4569 F120.00
G01 X8.7575 Y2.5584 F120.00
G00 Z2.0000
G00 X11.2975 Y2.5584
G01 F60.00
G01 Z-0.0400
G01 F120.00
G01 X11.2902 Y2.5761 F120.00
G01 X11.2439 Y2.6733 F120.00
G01 X11.1836 Y2.7739 F120.00
G01 X11.1137 Y2.8681 F120.00
G01 X11.0350 Y2.9550 F120.00
G01 X10.9481 Y3.0337 F120.00
G01 X10.8539 Y3.1036 F120.00
G01 X10.7533 Y3.1639 F120.00
G01 X10.6473 Y3.2140 F120.00
G01 X10.5369 Y3.2535 F120.00
G01 X10.4231 Y3.2820 F120.00
G01 X10.3071 Y3.2992 F120.00
G01 X10.1900 Y3.3050 F120.00
G01 X10.0729 Y3.2992 F120.00
G01 X9.9569 Y3.2820 F120.00
G01 X9.8431 Y3.2535 F120.00
G01 X9.7327 Y3.2140 F120.00
G01 X9.6267 Y3.1639 F120.00
G01 X9.5261 Y3.1036 F120.00
G01 X9.4319 Y3.0337 F120.00
G01 X9.3450 Y2.9550 F120.00
G01 X9.2663 Y2.8681 F120.00
G01 X9.1964 Y2.7739 F120.00
G01 X9.1361 Y2.6733 F120.00
G01 X9.0860 Y2.5673 F120.00
G01 X9.0465 Y2.4569 F120.00
G01 X9.0180 Y2.3431 F120.00
G01 X9.0008 Y2.2271 F120.00
G01 X8.9950 Y2.1100 F120.00
G01 X9.0008 Y1.9929 F120.00
G01 X9.0180 Y1.8769 F120.00
G01 X9.0465 Y1.7631 F120.00
G01 X9.0860 Y1.6527 F120.00
G01 X9.1361 Y1.5467 F120.00
G01 X9.1964 Y1.4461 F120.00
G01 X9.2663 Y1.3519 F120.00
G01 X9.3450 Y1.2650 F120.00
G01 X9.4319 Y1.1863 F120.00
G01 X9.5261 Y1.1164 F120.00
G01 X9.6267 Y1.0561 F120.00
G01 X9.7327 Y1.0060 F120.00
G01 X9.8431 Y0.9665 F120.00
G01 X9.9569 Y0.9380 F120.00
G01 X10.0729 Y0.9208 F120.00
G01 X10.1900 Y0.9150 F120.00
G01 X10.3071 Y0.9208 F120.00
G01 X10.4231 Y0.9380 F120.00
G01 X10.5369 Y0.9665 F120.00
G01 X10.6473 Y1.0060 F120.00
G01 X10.7533 Y1.0561 F120.00
G01 X10.8539 Y1.1164 F120.00
G01 X10.9481 Y1.1863 F120.00
G01 X11.0350 Y1.2650 F120.00
G01 X11.1137 Y1.3519 F120.00
G01 X11.1836 Y1.4461 F120.00
G01 X11.2439 Y1.5467 F120.00
G01 X11.2940 Y1.6527 F120.00
G01 X11.3335 Y1.7631 F120.00
G01 X11.3620 Y1.8769 F120.00
G01 X11.3792 Y1.9929 F120.00
G01 X11.3850 Y2.1100 F120.00
G01 X11.3792 Y2.2271 F120.00
G01 X11.3620 Y2.3431 F120.00
G01 X11.3335 Y2.4569 F120.00
G01 X11.2975 Y2.5584 F120.00
G00 Z2.0000
G00 X13.8375 Y2.5584
G01 F60.00
G01 Z-0.0400
G01 F120.00
G01 X13.8302 Y2.5761 F120.00
G01 X13.7839 Y2.6733 F120.00
G01 X13.7236 Y2.7739 F120.00
G01 X13.6537 Y2.8681 F120.00
G01 X13.5750 Y2.9550 F120.00
G01 X13.4881 Y3.0337 F120.00
G01 X13.3939 Y3.1036 F120.00
G01 X13.2933 Y3.1639 F120.00
G01 X13.1873 Y3.2140 F120.00
G01 X13.0769 Y3.2535 F120.00
G01 X12.9631 Y3.2820 F120.00
G01 X12.8471 Y3.2992 F120.00
G01 X12.7300 Y3.3050 F120.00
G01 X12.6129 Y3.2992 F120.00
G01 X12.4969 Y3.2820 F120.00
G01 X12.3831 Y3.2535 F120.00
G01 X12.2727 Y3.2140 F120.00
G01 X12.1667 Y3.1639 F120.00
G01 X12.0661 Y3.1036 F120.00
G01 X11.9719 Y3.0337 F120.00
G01 X11.8850 Y2.9550 F120.00
G01 X11.8063 Y2.8681 F120.00
G01 X11.7364 Y2.7739 F120.00
G01 X11.6761 Y2.6733 F120.00
G01 X11.6260 Y2.5673 F120.00
G01 X11.5865 Y2.4569 F120.00
G01 X11.5580 Y2.3431 F120.00
G01 X11.5408 Y2.2271 F120.00
G01 X11.5350 Y2.1100 F120.00
G01 X11.5408 Y1.9929 F120.00
G01 X11.5580 Y1.8769 F120.00
G01 X11.5865 Y1.7631 F120.00
G01 X11.6260 Y1.6527 F120.00
G01 X11.6761 Y1.5467 F120.00
G01 X11.7364 Y1.4461 F120.00
G01 X11.8063 Y1.3519 F120.00
G01 X11.8850 Y1.2650 F120.00
G01 X11.9719 Y1.1863 F120.00
G01 X12.0661 Y1.1164 F120.00
G01 X12.1667 Y1.0561 F120.00
G01 X12.2727 Y1.0060 F120.00
G01 X12.3831 Y0.9665 F120.00
G01 X12.4969 Y0.9380 F120.00
G01 X12.6129 Y0.9208 F120.00
G01 X12.7300 Y0.9150 F120.00
G01 X12.8471 Y0.9208 F120.00
G01 X12.9631 Y0.9380 F120.00
G01 X13.0769 Y0.9665 F120.00
G01 X13.1873 Y1.0060 F120.00
G01 X13.2933 Y1.0561 F120.00
G01 X13.3939 Y1.1164 F120.00
G01 X13.4881 Y1.1863 F120.00
G01 X13.5750 Y1.2650 F120.00
G01 X13.6537 Y1.3519 F120.00
G01 X13.7236 Y1.4461 F120.00
G01 X13.7839 Y1.5467 F120.00
G01 X13.8340 Y1.6527 F120.00
G01 X13.8735 Y1.7631 F120.00
G01 X13.9020 Y1.8769 F120.00
G01 X13.9192 Y1.9929 F120.00
G01 X13.9250 Y2.1100 F120.00
G01 X13.9192 Y2.2271 F120.00
G01 X13.9020 Y2.3431 F120.00
G01 X13.8735 Y2.4569 F120.00
G01 X13.8375 Y2.5584 F120.00
G00 Z2.0000
G00 X16.3775 Y2.5584
G01 F60.00
G01 Z-0.0400
G01 F120.00
G01 X16.3702 Y2.5761 F120.00
G01 X16.3239 Y2.6733 F120.00
G01 X16.2636 Y2.7739 F120.00
G01 X16.1937 Y2.8681 F120.00
G01 X16.1150 Y2.9550 F120.00
G01 X16.0281 Y3.0337 F120.00
G01 X15.9339 Y3.1036 F120.00
G01 X15.8333 Y3.1639 F120.00
G01 X15.7273 Y3.2140 F120.00
G01 X15.6169 Y3.2535 F120.00
G01 X15.5031 Y3.2820 F120.00
G01 X15.3871 Y3.2992 F120.00
G01 X15.2700 Y3.3050 F120.00
G01 X15.1529 Y3.2992 F120.00
G01 X15.0369 Y3.2820 F120.00
G01 X14.9231 Y3.2535 F120.00
G01 X14.8127 Y3.2140 F120.00
G01 X14.7067 Y3.1639 F120.00
G01 X14.6061 Y3.1036 F120.00
G01 X14.5119 Y3.0337 F120.00
G01 X14.4250 Y2.9550 F120.00
G01 X14.3463 Y2.8681 F120.00
G01 X14.2764 Y2.7739 F120.00
G01 X14.2161 Y2.6733 F120.00
G01 X14.1660 Y2.5673 F120.00
G01 X14.1265 Y2.4569 F120.00
G01 X14.0980 Y2.3431 F120.00
G01 X14.0808 Y2.2271 F120.00
G01 X14.0750 Y2.1100 F120.00
G01 X14.0808 Y1.9929 F120.00
G01 X14.0980 Y1.8769 F120.00
G01 X14.1265 Y1.7631 F120.00
G01 X14.1660 Y1.6527 F120.00
G01 X14.2161 Y1.5467 F120.00
G01 X14.2764 Y1.4461 F120.00
G01 X14.3463 Y1.3519 F120.00
G01 X14.4250 Y1.2650 F120.00
G01 X14.5119 Y1.1863 F120.00
G01 X14.6061 Y1.1164 F120.00
G01 X14.7067 Y1.0561 F120.00
G01 X14.8127 Y1.0060 F120.00
G01 X14.9231 Y0.9665 F120.00
G01 X15.0369 Y0.9380 F120.00
G01 X15.1529 Y0.9208 F120.00
G01 X15.2700 Y0.9150 F120.00
G01 X15.3871 Y0.9208 F120.00
G01 X15.5031 Y0.9380 F120.00
G01 X15.6169 Y0.9665 F120.00
G01 X15.7273 Y1.0060 F120.00
G01 X15.8333 Y1.0561 F120.00
G01 X15.9339 Y1.1164 F120.00
G01 X16.0281 Y1.1863 F120.00
G01 X16.1150 Y1.2650 F120.00
G01 X16.1937 Y1.3519 F120.00
G01 X16.2636 Y1.4461 F120.00
G01 X16.3239 Y1.5467 F120.00
G01 X16.3740 Y1.6527 F120.00
G01 X16.4135 Y1.7631 F120.00
G01 X16.4420 Y1.8769 F120.00
G01 X16.4592 Y1.9929 F120.00
G01 X16.4650 Y2.1100 F120.00
G01 X16.4592 Y2.2271 F120.00
G01 X16.4420 Y2.3431 F120.00
G01 X16.4135 Y2.4569 F120.00
G01 X16.3775 Y2.5584 F120.00
G00 Z2.0000
G00 X18.9175 Y2.5584
G01 F60.00
G01 Z-0.0400
G01 F120.00
G01 X18.9102 Y2.5761 F120.00
G01 X18.8639 Y2.6733 F120.00
G01 X18.8036 Y2.7739 F120.00
G01 X18.7337 Y2.8681 F120.00
G01 X18.6550 Y2.9550 F120.00
G01 X18.5681 Y3.0337 F120.00
G01 X18.4739 Y3.1036 F120.00
G01 X18.3733 Y3.1639 F120.00
G01 X18.2673 Y3.2140 F120.00
G01 X18.1569 Y3.2535 F120.00
G01 X18.0431 Y3.2820 F120.00
G01 X17.9271 Y3.2992 F120.00
G01 X17.8100 Y3.3050 F120.00
G01 X17.6929 Y3.2992 F120.00
G01 X17.5769 Y3.2820 F120.00
G01 X17.4631 Y3.2535 F120.00
G01 X17.3527 Y3.2140 F120.00
G01 X17.2467 Y3.1639 F120.00
G01 X17.1461 Y3.1036 F120.00
G01 X17.0519 Y3.0337 F120.00
G01 X16.9650 Y2.9550 F120.00
G01 X16.8863 Y2.8681 F120.00
G01 X16.8164 Y2.7739 F120.00
G01 X16.7561 Y2.6733 F120.00
G01 X16.7060 Y2.5673 F120.00
G01 X16.6665 Y2.4569 F120.00
G01 X16.6380 Y2.3431 F120.00
G01 X16.6208 Y2.2271 F120.00
G01 X16.6150 Y2.1100 F120.00
G01 X16.6208 Y1.9929 F120.00
G01 X16.6380 Y1.8769 F120.00
G01 X16.6665 Y1.7631 F120.00
G01 X16.7060 Y1.6527 F120.00
G01 X16.7561 Y1.5467 F120.00
G01 X16.8164 Y1.4461 F120.00
G01 X16.8863 Y1.3519 F120.00
G01 X16.9650 Y1.2650 F120.00
G01 X17.0519 Y1.1863 F120.00
G01 X17.1461 Y1.1164 F120.00
G01 X17.2467 Y1.0561 F120.00
G01 X17.3527 Y1.0060 F120.00
G01 X17.4631 Y0.9665 F120.00
G01 X17.5769 Y0.9380 F120.00
G01 X17.6929 Y0.9208 F120.00
G01 X17.8100 Y0.9150 F120.00
G01 X17.9271 Y0.9208 F120.00
G01 X18.0431 Y0.9380 F120.00
G01 X18.1569 Y0.9665 F120.00
G01 X18.2673 Y1.0060 F120.00
G01 X18.3733 Y1.0561 F120.00
G01 X18.4739 Y1.1164 F120.00
G01 X18.5681 Y1.1863 F120.00
G01 X18.6550 Y1.2650 F120.00
G01 X18.7337 Y1.3519 F120.00
G01 X18.8036 Y1.4461 F120.00
G01 X18.8639 Y1.5467 F120.00
G01 X18.9140 Y1.6527 F120.00
G01 X18.9535 Y1.7631 F120.00
G01 X18.9820 Y1.8769 F120.00
G01 X18.9992 Y1.9929 F120.00
G01 X19.0050 Y2.1100 F120.00
G01 X18.9992 Y2.2271 F120.00
G01 X18.9820 Y2.3431 F120.00
G01 X18.9535 Y2.4569 F120.00
G01 X18.9175 Y2.5584 F120.00
G00 Z2.0000
G00 X21.4575 Y2.5584
G01 F60.00
G01 Z-0.0400
G01 F120.00
G01 X21.4502 Y2.5761 F120.00
G01 X21.4039 Y2.6733 F120.00
G01 X21.3436 Y2.7739 F120.00
G01 X21.2737 Y2.8681 F120.00
G01 X21.1950 Y2.9550 F120.00
G01 X21.1081 Y3.0337 F120.00
G01 X21.0139 Y3.1036 F120.00
G01 X20.9133 Y3.1639 F120.00
G01 X20.8073 Y3.2140 F120.00
G01 X20.6969 Y3.2535 F120.00
G01 X20.5831 Y3.2820 F120.00
G01 X20.4671 Y3.2992 F120.00
G01 X20.3500 Y3.3050 F120.00
G01 X20.2329 Y3.2992 F120.00
G01 X20.1169 Y3.2820 F120.00
G01 X20.0031 Y3.2535 F120.00
G01 X19.8927 Y3.2140 F120.00
G01 X19.7867 Y3.1639 F120.00
G01 X19.6861 Y3.1036 F120.00
G01 X19.5919 Y3.0337 F120.00
G01 X19.5050 Y2.9550 F120.00
G01 X19.4263 Y2.8681 F120.00
G01 X19.3564 Y2.7739 F120.00
G01 X19.2961 Y2.6733 F120.00
G01 X19.2460 Y2.5673 F120.00
G01 X19.2065 Y2.4569 F120.00
G01 X19.1780 Y2.3431 F120.00
G01 X19.1608 Y2.2271 F120.00
G01 X19.1550 Y2.1100 F120.00
G01 X19.1608 Y1.9929 F120.00
G01 X19.1780 Y1.8769 F120.00
G01 X19.2065 Y1.7631 F120.00
G01 X19.2460 Y1.6527 F120.00
G01 X19.2961 Y1.5467 F120.00
G01 X19.3564 Y1.4461 F120.00
G01 X19.4263 Y1.3519 F120.00
G01 X19.5050 Y1.2650 F120.00
G01 X19.5919 Y1.1863 F120.00
G01 X19.6861 Y1.1164 F120.00
G01 X19.7867 Y1.0561 F120.00
G01 X19.8927 Y1.0060 F120.00
G01 X20.0031 Y0.9665 F120.00
G01 X20.1169 Y0.9380 F120.00
G01 X20.2329 Y0.9208 F120.00
G01 X20.3500 Y0.9150 F120.00
G01 X20.4671 Y0.9208 F120.00
G01 X20.5831 Y0.9380 F120.00
G01 X20.6969 Y0.9665 F120.00
G01 X20.8073 Y1.0060 F120.00
G01 X20.9133 Y1.0561 F120.00
G01 X21.0139 Y1.1164 F120.00
G01 X21.1081 Y1.1863 F120.00
G01 X21.1950 Y1.2650 F120.00
G01 X21.2737 Y1.3519 F120.00
G01 X21.3436 Y1.4461 F120.00
G01 X21.4039 Y1.5467 F120.00
G01 X21.4540 Y1.6527 F120.00
G01 X21.4935 Y1.7631 F120.00
G01 X21.5220 Y1.8769 F120.00
G01 X21.5392 Y1.9929 F120.00
G01 X21.5450 Y2.1100 F120.00
G01 X21.5392 Y2.2271 F120.00
G01 X21.5220 Y2.3431 F120.00
G01 X21.4935 Y2.4569 F120.00
G01 X21.4575 Y2.5584 F120.00
G00 Z2.0000
G00 X20.3404 Y23.7752
G01 F60.00
G01 Z-0.0400
G01 F120.00
G01 X20.3596 Y23.7752 F120.00
G01 X20.4671 Y23.7808 F120.00
G01 X20.5831 Y23.7980 F120.00
G01 X20.6969 Y23.8265 F120.00
G01 X20.8073 Y23.8660 F120.00
G01 X20.9133 Y23.9161 F120.00
G01 X21.0139 Y23.9764 F120.00
G01 X21.1081 Y24.0463 F120.00
G01 X21.1950 Y24.1250 F120.00
G01 X21.2737 Y24.2119 F120.00
G01 X21.3436 Y24.3061 F120.00
G01 X21.4039 Y24.4067 F120.00
G01 X21.4540 Y24.5127 F120.00
G01 X21.4935 Y24.6231 F120.00
G01 X21.5220 Y24.7369 F120.00
G01 X21.5392 Y24.8529 F120.00
G01 X21.5450 Y24.9700 F120.00
G01 X21.5392 Y25.0871 F120.00
G01 X21.5220 Y25.2031 F120.00
G01 X21.4935 Y25.3169 F120.00
G01 X21.4540 Y25.4273 F120.00
G01 X21.4039 Y25.5333 F120.00
G01 X21.3436 Y25.6339 F120.00
G01 X21.2737 Y25.7281 F120.00
G01 X21.1950 Y25.8150 F120.00
G01 X21.1081 Y25.8937 F120.00
G01 X21.0139 Y25.9636 F120.00
G01 X20.9133 Y26.0239 F120.00
G01 X20.8073 Y26.0740 F120.00
G01 X20.6969 Y26.1135 F120.00
G01 X20.5831 Y26.1420 F120.00
G01 X20.4671 Y26.1592 F120.00
G01 X20.3500 Y26.1650 F120.00
G01 X20.2329 Y26.1592 F120.00
G01 X20.1169 Y26.1420 F120.00
G01 X20.0031 Y26.1135 F120.00
G01 X19.8927 Y26.0740 F120.00
G01 X19.7867 Y26.0239 F120.00
G01 X19.6861 Y25.9636 F120.00
G01 X19.5919 Y25.8937 F120.00
G01 X19.5050 Y25.8150 F120.00
G01 X19.4263 Y25.7281 F120.00
G01 X19.3564 Y25.6339 F120.00
G01 X19.2961 Y25.5333 F120.00
G01 X19.2460 Y25.4273 F120.00
G01 X19.2065 Y25.3169 F120.00
G01 X19.1780 Y25.2031 F120.00
G01 X19.1608 Y25.0871 F120.00
G01 X19.1550 Y24.9700 F120.00
G01 X19.1608 Y24.8529 F120.00
G01 X19.1780 Y24.7369 F120.00
G01 X19.2065 Y24.6231 F120.00
G01 X19.2460 Y24.5127 F120.00
G01 X19.2961 Y24.4067 F120.00
G01 X19.3564 Y24.3061 F120.00
G01 X19.4263 Y24.2119 F120.00
G01 X19.5050 Y24.1250 F120.00
G01 X19.5919 Y24.0463 F120.00
G01 X19.6861 Y23.9764 F120.00
G01 X19.7867 Y23.9161 F120.00
G01 X19.8927 Y23.8660 F120.00
G01 X20.0031 Y23.8265 F120.00
G01 X20.1169 Y23.7980 F120.00
G01 X20.2329 Y23.7808 F120.00
G01 X20.3404 Y23.7752 F120.00
G00 Z2.0000
G00 X17.8004 Y23.7752
G01 F60.00
G01 Z-0.0400
G01 F120.00
G01 X17.8196 Y23.7752 F120.00
G01 X17.9271 Y23.7808 F120.00
G01 X18.0431 Y23.7980 F120.00
G01 X18.1569 Y23.8265 F120.00
G01 X18.2673 Y23.8660 F120.00
G01 X18.3733 Y23.9161 F120.00
G01 X18.4739 Y23.9764 F120.00
G01 X18.5681 Y24.0463 F120.00
G01 X18.6550 Y24.1250 F120.00
G01 X18.7337 Y24.2119 F120.00
G01 X18.8036 Y24.3061 F120.00
G01 X18.8639 Y24.4067 F120.00
G01 X18.9140 Y24.5127 F120.00
G01 X18.9535 Y24.6231 F120.00
G01 X18.9820 Y24.7369 F120.00
G01 X18.9992 Y24.8529 F120.00
G01 X19.0050 Y24.9700 F120.00
G01 X18.9992 Y25.0871 F120.00
G01 X18.9820 Y25.2031 F120.00
G01 X18.9535 Y25.3169 F120.00
G01 X18.9140 Y25.4273 F120.00
G01 X18.8639 Y25.5333 F120.00
G01 X18.8036 Y25.6339 F120.00
G01 X18.7337 Y25.7281 F120.00
G01 X18.6550 Y25.8150 F120.00
G01 X18.5681 Y25.8937 F120.00
G01 X18.4739 Y25.9636 F120.00
G01 X18.3733 Y26.0239 F120.00
G01 X18.2673 Y26.0740 F120.00
G01 X18.1569 Y26.1135 F120.00
G01 X18.0431 Y26.1420 F120.00
G01 X17.9271 Y26.1592 F120.00
G01 X17.8100 Y26.1650 F120.00
G01 X17.6929 Y26.1592 F120.00
G01 X17.5769 Y26.1420 F120.00
G01 X17.4631 Y26.1135 F120.00
G01 X17.3527 Y26.0740 F120.00
G01 X17.2467 Y26.0239 F120.00
G01 X17.1461 Y25.9636 F120.00
G01 X17.0519 Y25.8937 F120.00
G01 X16.9650 Y25.8150 F120.00
G01 X16.8863 Y25.7281 F120.00
G01 X16.8164 Y25.6339 F120.00
G01 X16.7561 Y25.5333 F120.00
G01 X16.7060 Y25.4273 F120.00
G01 X16.6665 Y25.3169 F120.00
G01 X16.6380 Y25.2031 F120.00
G01 X16.6208 Y25.0871 F120.00
G01 X16.6150 Y24.9700 F120.00
G01 X16.6208 Y24.8529 F120.00
G01 X16.6380 Y24.7369 F120.00
G01 X16.6665 Y24.6231 F120.00
G01 X16.7060 Y24.5127 F120.00
G01 X16.7561 Y24.4067 F120.00
G01 X16.8164 Y24.3061 F120.00
G01 X16.8863 Y24.2119 F120.00
G01 X16.9650 Y24.1250 F120.00
G01 X17.0519 Y24.0463 F120.00
G01 X17.1461 Y23.9764 F120.00
G01 X17.2467 Y23.9161 F120.00
G01 X17.3527 Y23.8660 F120.00
G01 X17.4631 Y23.8265 F120.00
G01 X17.5769 Y23.7980 F120.00
G01 X17.6929 Y23.7808 F120.00
G01 X17.8004 Y23.7752 F120.00
G00 Z2.0000
G00 X15.2604 Y23.7752
G01 F60.00
G01 Z-0.0400
G01 F120.00
G01 X15.2796 Y23.7752 F120.00
G01 X15.3871 Y23.7808 F120.00
G01 X15.5031 Y23.7980 F120.00
G01 X15.6169 Y23.8265 F120.00
G01 X15.7273 Y23.8660 F120.00
G01 X15.8333 Y23.9161 F120.00
G01 X15.9339 Y23.9764 F120.00
G01 X16.0281 Y24.0463 F120.00
G01 X16.1150 Y24.1250 F120.00
G01 X16.1937 Y24.2119 F120.00
G01 X16.2636 Y24.3061 F120.00
G01 X16.3239 Y24.4067 F120.00
G01 X16.3740 Y24.5127 F120.00
G01 X16.4135 Y24.6231 F120.00
G01 X16.4420 Y24.7369 F120.00
G01 X16.4592 Y24.8529 F120.00
G01 X16.4650 Y24.9700 F120.00
G01 X16.4592 Y25.0871 F120.00
G01 X16.4420 Y25.2031 F120.00
G01 X16.4135 Y25.3169 F120.00
G01 X16.3740 Y25.4273 F120.00
G01 X16.3239 Y25.5333 F120.00
G01 X16.2636 Y25.6339 F120.00
G01 X16.1937 Y25.7281 F120.00
G01 X16.1150 Y25.8150 F120.00
G01 X16.0281 Y25.8937 F120.00
G01 X15.9339 Y25.9636 F120.00
G01 X15.8333 Y26.0239 F120.00
G01 X15.7273 Y26.0740 F120.00
G01 X15.6169 Y26.1135 F120.00
G01 X15.5031 Y26.1420 F120.00
G01 X15.3871 Y26.1592 F120.00
G01 X15.2700 Y26.1650 F120.00
G01 X15.1529 Y26.1592 F120.00
G01 X15.0369 Y26.1420 F120.00
G01 X14.9231 Y26.1135 F120.00
G01 X14.8127 Y26.0740 F120.00
G01 X14.7067 Y26.0239 F120.00
G01 X14.6061 Y25.9636 F120.00
G01 X14.5119 Y25.8937 F120.00
G01 X14.4250 Y25.8150 F120.00
G01 X14.3463 Y25.7281 F120.00
G01 X14.2764 Y25.6339 F120.00
G01 X14.2161 Y25.5333 F120.00
G01 X14.1660 Y25.4273 F120.00
G01 X14.1265 Y25.3169 F120.00
G01 X14.0980 Y25.2031 F120.00
G01 X14.0808 Y25.0871 F120.00
G01 X14.0750 Y24.9700 F120.00
G01 X14.0808 Y24.8529 F120.00
G01 X14.0980 Y24.7369 F120.00
G01 X14.1265 Y24.6231 F120.00
G01 X14.1660 Y24.5127 F120.00
G01 X14.2161 Y24.4067 F120.00
G01 X14.2764 Y24.3061 F120.00
G01 X14.3463 Y24.2119 F120.00
G01 X14.4250 Y24.1250 F120.00
G01 X14.5119 Y24.0463 F120.00
G01 X14.6061 Y23.9764 F120.00
G01 X14.7067 Y23.9161 F120.00
G01 X14.8127 Y23.8660 F120.00
G01 X14.9231 Y23.8265 F120.00
G01 X15.0369 Y23.7980 F120.00
G01 X15.1529 Y23.7808 F120.00
G01 X15.2604 Y23.7752 F120.00
G00 Z2.0000
G00 X10.1804 Y23.7752
G01 F60.00
G01 Z-0.0400
G01 F120.00
G01 X10.1996 Y23.7752 F120.00
G01 X10.3071 Y23.7808 F120.00
G01 X10.4231 Y23.7980 F120.00
G01 X10.5369 Y23.8265 F120.00
G01 X10.6473 Y23.8660 F120.00
G01 X10.7533 Y23.9161 F120.00
G01 X10.8539 Y23.9764 F120.00
G01 X10.9481 Y24.0463 F120.00
G01 X11.0350 Y24.1250 F120.00
G01 X11.1137 Y24.2119 F120.00
G01 X11.1836 Y24.3061 F120.00
G01 X11.2439 Y24.4067 F120.00
G01 X11.2940 Y24.5127 F120.00
G01 X11.3335 Y24.6231 F120.00
G01 X11.3620 Y24.7369 F120.00
G01 X11.3792 Y24.8529 F120.00
G01 X11.3850 Y24.9700 F120.00
G01 X11.3792 Y25.0871 F120.00
G01 X11.3620 Y25.2031 F120.00
G01 X11.3335 Y25.3169 F120.00
G01 X11.2940 Y25.4273 F120.00
G01 X11.2439 Y25.5333 F120.00
G01 X11.1836 Y25.6339 F120.00
G01 X11.1137 Y25.7281 F120.00
G01 X11.0350 Y25.8150 F120.00
G01 X10.9481 Y25.8937 F120.00
G01 X10.8539 Y25.9636 F120.00
G01 X10.7533 Y26.0239 F120.00
G01 X10.6473 Y26.0740 F120.00
G01 X10.5369 Y26.1135 F120.00
G01 X10.4231 Y26.1420 F120.00
G01 X10.3071 Y26.1592 F120.00
G01 X10.1900 Y26.1650 F120.00
G01 X10.0729 Y26.1592 F120.00
G01 X9.9569 Y26.1420 F120.00
G01 X9.8431 Y26.1135 F120.00
G01 X9.7327 Y26.0740 F120.00
G01 X9.6267 Y26.0239 F120.00
G01 X9.5261 Y25.9636 F120.00
G01 X9.4319 Y25.8937 F120.00
G01 X9.3450 Y25.8150 F120.00
G01 X9.2663 Y25.7281 F120.00
G01 X9.1964 Y25.6339 F120.00
G01 X9.1361 Y25.5333 F120.00
G01 X9.0860 Y25.4273 F120.00
G01 X9.0465 Y25.3169 F120.00
G01 X9.0180 Y25.2031 F120.00
G01 X9.0008 Y25.0871 F120.00
G01 X8.9950 Y24.9700 F120.00
G01 X9.0008 Y24.8529 F120.00
G01 X9.0180 Y24.7369 F120.00
G01 X9.0465 Y24.6231 F120.00
G01 X9.0860 Y24.5127 F120.00
G01 X9.1361 Y24.4067 F120.00
G01 X9.1964 Y24.3061 F120.00
G01 X9.2663 Y24.2119 F120.00
G01 X9.3450 Y24.1250 F120.00
G01 X9.4319 Y24.0463 F120.00
G01 X9.5261 Y23.9764 F120.00
G01 X9.6267 Y23.9161 F120.00
G01 X9.7327 Y23.8660 F120.00
G01 X9.8431 Y23.8265 F120.00
G01 X9.9569 Y23.7980 F120.00
G01 X10.0729 Y23.7808 F120.00
G01 X10.1804 Y23.7752 F120.00
G00 Z2.0000
G00 X7.6404 Y23.7752
G01 F60.00
G01 Z-0.0400
G01 F120.00
G01 X7.6596 Y23.7752 F120.00
G01 X7.7671 Y23.7808 F120.00
G01 X7.8831 Y23.7980 F120.00
G01 X7.9969 Y23.8265 F120.00
G01 X8.1073 Y23.8660 F120.00
G01 X8.2133 Y23.9161 F120.00
G01 X8.3139 Y23.9764 F120.00
G01 X8.4081 Y24.0463 F120.00
G01 X8.4950 Y24.1250 F120.00
G01 X8.5737 Y24.2119 F120.00
G01 X8.6436 Y24.3061 F120.00
G01 X8.7039 Y24.4067 F120.00
G01 X8.7540 Y24.5127 F120.00
G01 X8.7935 Y24.6231 F120.00
G01 X8.8220 Y24.7369 F120.00
G01 X8.8392 Y24.8529 F120.00
G01 X8.8450 Y24.9700 F120.00
G01 X8.8392 Y25.0871 F120.00
G01 X8.8220 Y25.2031 F120.00
G01 X8.7935 Y25.3169 F120.00
G01 X8.7540 Y25.4273 F120.00
G01 X8.7039 Y25.5333 F120.00
G01 X8.6436 Y25.6339 F120.00
G01 X8.5737 Y25.7281 F120.00
G01 X8.4950 Y25.8150 F120.00
G01 X8.4081 Y25.8937 F120.00
G01 X8.3139 Y25.9636 F120.00
G01 X8.2133 Y26.0239 F120.00
G01 X8.1073 Y26.0740 F120.00
G01 X7.9969 Y26.1135 F120.00
G01 X7.8831 Y26.1420 F120.00
G01 X7.7671 Y26.1592 F120.00
G01 X7.6500 Y26.1650 F120.00
G01 X7.5329 Y26.1592 F120.00
G01 X7.4169 Y26.1420 F120.00
G01 X7.3031 Y26.1135 F120.00
G01 X7.1927 Y26.0740 F120.00
G01 X7.0867 Y26.0239 F120.00
G01 X6.9861 Y25.9636 F120.00
G01 X6.8919 Y25.8937 F120.00
G01 X6.8050 Y25.8150 F120.00
G01 X6.7263 Y25.7281 F120.00
G01 X6.6564 Y25.6339 F120.00
G01 X6.5961 Y25.5333 F120.00
G01 X6.5460 Y25.4273 F120.00
G01 X6.5065 Y25.3169 F120.00
G01 X6.4780 Y25.2031 F120.00
G01 X6.4608 Y25.0871 F120.00
G01 X6.4550 Y24.9700 F120.00
G01 X6.4608 Y24.8529 F120.00
G01 X6.4780 Y24.7369 F120.00
G01 X6.5065 Y24.6231 F120.00
G01 X6.5460 Y24.5127 F120.00
G01 X6.5961 Y24.4067 F120.00
G01 X6.6564 Y24.3061 F120.00
G01 X6.7263 Y24.2119 F120.00
G01 X6.8050 Y24.1250 F120.00
G01 X6.8919 Y24.0463 F120.00
G01 X6.9861 Y23.9764 F120.00
G01 X7.0867 Y23.9161 F120.00
G01 X7.1927 Y23.8660 F120.00
G01 X7.3031 Y23.8265 F120.00
G01 X7.4169 Y23.7980 F120.00
G01 X7.5329 Y23.7808 F120.00
G01 X7.6404 Y23.7752 F120.00
G00 Z2.0000
G00 X6.7995 Y25.9658
G01 F60.00
G01 Z-0.0400
G01 F120.00
G01 X6.6542 Y25.8205 F120.00
G01 X6.5334 Y25.6542 F120.00
G01 X6.4401 Y25.4711 F120.00
G01 X6.3766 Y25.2757 F120.00
G01 X6.3445 Y25.0728 F120.00
G01 X6.3445 Y24.8672 F120.00
G01 X6.3766 Y24.6643 F120.00
G01 X6.4401 Y24.4689 F120.00
G01 X6.5334 Y24.2858 F120.00
G01 X6.6542 Y24.1195 F120.00
G01 X6.7995 Y23.9742 F120.00
G01 X6.9658 Y23.8534 F120.00
G01 X7.1489 Y23.7601 F120.00
G01 X7.3443 Y23.6966 F120.00
G01 X7.5472 Y23.6645 F120.00
G01 X7.7527 Y23.6645 F120.00
G01 X7.9557 Y23.6966 F120.00
G01 X8.1511 Y23.7601 F120.00
G01 X8.3342 Y23.8534 F120.00
G01 X8.5005 Y23.9742 F120.00
G01 X8.6458 Y24.1195 F120.00
G01 X8.6687 Y24.1506 F120.00
G01 X8.6927 Y24.1780 F120.00
G01 X8.7067 Y24.1913 F120.00
G01 X8.7220 Y24.2031 F120.00
G01 X8.7383 Y24.2133 F120.00
G01 X8.8044 Y24.2482 F120.00
G01 X8.8175 Y24.2545 F120.00
G01 X8.8264 Y24.2582 F120.00
G01 X8.8449 Y24.2641 F120.00
G01 X8.8590 Y24.2674 F120.00
G01 X8.8782 Y24.2700 F120.00
G01 X8.8976 Y24.2708 F120.00
G01 X8.9121 Y24.2701 F120.00
G01 X8.9865 Y24.2636 F120.00
G01 X9.0009 Y24.2615 F120.00
G01 X9.0103 Y24.2594 F120.00
G01 X9.0289 Y24.2540 F120.00
G01 X9.0469 Y24.2468 F120.00
G01 X9.0640 Y24.2378 F120.00
G01 X9.0763 Y24.2299 F120.00
G01 X9.1394 Y24.1815 F120.00
G01 X9.1501 Y24.1727 F120.00
G01 X9.1569 Y24.1663 F120.00
G01 X9.1665 Y24.1562 F120.00
G01 X9.1724 Y24.1491 F120.00
G01 X9.1942 Y24.1195 F120.00
G01 X9.3395 Y23.9742 F120.00
G01 X9.5058 Y23.8534 F120.00
G01 X9.6889 Y23.7601 F120.00
G01 X9.8843 Y23.6966 F120.00
G01 X10.0872 Y23.6645 F120.00
G01 X10.2927 Y23.6645 F120.00
G01 X10.4957 Y23.6966 F120.00
G01 X10.6911 Y23.7601 F120.00
G01 X10.8742 Y23.8534 F120.00
G01 X11.0405 Y23.9742 F120.00
G01 X11.1858 Y24.1195 F120.00
G01 X11.2087 Y24.1506 F120.00
G01 X11.2327 Y24.1780 F120.00
G01 X11.2467 Y24.1913 F120.00
G01 X11.2620 Y24.2031 F120.00
G01 X11.2783 Y24.2133 F120.00
G01 X11.3444 Y24.2482 F120.00
G01 X11.3531 Y24.2525 F120.00
G01 X11.3664 Y24.2582 F120.00
G01 X11.3849 Y24.2641 F120.00
G01 X11.4038 Y24.2682 F120.00
G01 X11.4230 Y24.2704 F120.00
G01 X11.4376 Y24.2708 F120.00
G01 X11.4521 Y24.2701 F120.00
G01 X11.5265 Y24.2636 F120.00
G01 X11.5409 Y24.2615 F120.00
G01 X11.5503 Y24.2594 F120.00
G01 X11.5689 Y24.2540 F120.00
G01 X11.5869 Y24.2468 F120.00
G01 X11.6040 Y24.2378 F120.00
G01 X11.6163 Y24.2299 F120.00
G01 X11.6794 Y24.1815 F120.00
G01 X11.6901 Y24.1727 F120.00
G01 X11.6969 Y24.1663 F120.00
G01 X11.7065 Y24.1562 F120.00
G01 X11.7124 Y24.1491 F120.00
G01 X11.7342 Y24.1195 F120.00
G01 X11.8795 Y23.9742 F120.00
G01 X12.0458 Y23.8534 F120.00
G01 X12.2289 Y23.7601 F120.00
G01 X12.4243 Y23.6966 F120.00
G01 X12.6272 Y23.6645 F120.00
G01 X12.8327 Y23.6645 F120.00
G01 X13.0357 Y23.6966 F120.00
G01 X13.2311 Y23.7601 F120.00
G01 X13.4142 Y23.8534 F120.00
G01 X13.5805 Y23.9742 F120.00
G01 X13.7258 Y24.1195 F120.00
G01 X13.7487 Y24.1506 F120.00
G01 X13.7727 Y24.1780 F120.00
G01 X13.7867 Y24.1913 F120.00
G01 X13.8020 Y24.2031 F120.00
G01 X13.8183 Y24.2133 F120.00
G01 X13.8844 Y24.2482 F120.00
G01 X13.8931 Y24.2525 F120.00
G01 X13.9064 Y24.2582 F120.00
G01 X13.9249 Y24.2641 F120.00
G01 X13.9438 Y24.2682 F120.00
G01 X13.9630 Y24.2704 F120.00
G01 X13.9776 Y24.2708 F120.00
G01 X13.9921 Y24.2701 F120.00
G01 X14.0665 Y24.2636 F120.00
G01 X14.0809 Y24.2615 F120.00
G01 X14.0903 Y24.2594 F120.00
G01 X14.1089 Y24.2540 F120.00
G01 X14.1269 Y24.2468 F120.00
G01 X14.1440 Y24.2378 F120.00
G01 X14.1563 Y24.2299 F120.00
G01 X14.2194 Y24.1815 F120.00
G01 X14.2301 Y24.1727 F120.00
G01 X14.2369 Y24.1663 F120.00
G01 X14.2465 Y24.1562 F120.00
G01 X14.2524 Y24.1491 F120.00
G01 X14.2742 Y24.1195 F120.00
G01 X14.4195 Y23.9742 F120.00
G01 X14.5858 Y23.8534 F120.00
G01 X14.7689 Y23.7601 F120.00
G01 X14.9643 Y23.6966 F120.00
G01 X15.1672 Y23.6645 F120.00
G01 X15.3727 Y23.6645 F120.00
G01 X15.5757 Y23.6966 F120.00
G01 X15.7711 Y23.7601 F120.00
G01 X15.9542 Y23.8534 F120.00
G01 X16.1205 Y23.9742 F120.00
G01 X16.2658 Y24.1195 F120.00
G01 X16.2887 Y24.1506 F120.00
G01 X16.3127 Y24.1780 F120.00
G01 X16.3267 Y24.1913 F120.00
G01 X16.3420 Y24.2031 F120.00
G01 X16.3583 Y24.2133 F120.00
G01 X16.4244 Y24.2482 F120.00
G01 X16.4331 Y24.2525 F120.00
G01 X16.4464 Y24.2582 F120.00
G01 X16.4649 Y24.2641 F120.00
G01 X16.4790 Y24.2674 F120.00
G01 X16.4982 Y24.2700 F120.00
G01 X16.5176 Y24.2708 F120.00
G01 X16.5321 Y24.2701 F120.00
G01 X16.6065 Y24.2636 F120.00
G01 X16.6209 Y24.2615 F120.00
G01 X16.6303 Y24.2594 F120.00
G01 X16.6489 Y24.2540 F120.00
G01 X16.6669 Y24.2468 F120.00
G01 X16.6840 Y24.2378 F120.00
G01 X16.6963 Y24.2299 F120.00
G01 X16.7594 Y24.1815 F120.00
G01 X16.7701 Y24.1727 F120.00
G01 X16.7769 Y24.1663 F120.00
G01 X16.7834 Y24.1597 F120.00
G01 X16.7924 Y24.1491 F120.00
G01 X16.8142 Y24.1195 F120.00
G01 X16.9595 Y23.9742 F120.00
G01 X17.1258 Y23.8534 F120.00
G01 X17.3089 Y23.7601 F120.00
G01 X17.5043 Y23.6966 F120.00
G01 X17.7072 Y23.6645 F120.00
G01 X17.9128 Y23.6645 F120.00
G01 X18.1157 Y23.6966 F120.00
G01 X18.3111 Y23.7601 F120.00
G01 X18.4942 Y23.8534 F120.00
G01 X18.6605 Y23.9742 F120.00
G01 X18.8058 Y24.1195 F120.00
G01 X18.8287 Y24.1506 F120.00
G01 X18.8527 Y24.1780 F120.00
G01 X18.8667 Y24.1913 F120.00
G01 X18.8820 Y24.2031 F120.00
G01 X18.8983 Y24.2133 F120.00
G01 X18.9644 Y24.2482 F120.00
G01 X18.9731 Y24.2525 F120.00
G01 X18.9864 Y24.2582 F120.00
G01 X19.0049 Y24.2641 F120.00
G01 X19.0238 Y24.2682 F120.00
G01 X19.0430 Y24.2704 F120.00
G01 X19.0576 Y24.2708 F120.00
G01 X19.0721 Y24.2701 F120.00
G01 X19.1417 Y24.2641 F120.00
G01 X19.1561 Y24.2623 F120.00
G01 X19.1656 Y24.2605 F120.00
G01 X19.1843 Y24.2555 F120.00
G01 X19.1980 Y24.2506 F120.00
G01 X19.2156 Y24.2425 F120.00
G01 X19.2322 Y24.2326 F120.00
G01 X19.2441 Y24.2242 F120.00
G01 X19.2994 Y24.1815 F120.00
G01 X19.3101 Y24.1727 F120.00
G01 X19.3169 Y24.1663 F120.00
G01 X19.3234 Y24.1597 F120.00
G01 X19.3324 Y24.1491 F120.00
G01 X19.3542 Y24.1195 F120.00
G01 X19.4995 Y23.9742 F120.00
G01 X19.6658 Y23.8534 F120.00
G01 X19.8489 Y23.7601 F120.00
G01 X20.0443 Y23.6966 F120.00
G01 X20.2472 Y23.6645 F120.00
G01 X20.4527 Y23.6645 F120.00
G01 X20.6557 Y23.6966 F120.00
G01 X20.8511 Y23.7601 F120.00
G01 X21.0342 Y23.8534 F120.00
G01 X21.2005 Y23.9742 F120.00
G01 X21.3458 Y24.1195 F120.00
G01 X21.4666 Y24.2858 F120.00
G01 X21.5599 Y24.4689 F120.00
G01 X21.6234 Y24.6643 F120.00
G01 X21.6555 Y24.8673 F120.00
G01 X21.6555 Y25.0728 F120.00
G01 X21.6234 Y25.2757 F120.00
G01 X21.5599 Y25.4711 F120.00
G01 X21.4666 Y25.6542 F120.00
G01 X21.3458 Y25.8205 F120.00
G01 X21.2005 Y25.9658 F120.00
G01 X21.0342 Y26.0866 F120.00
G01 X20.8511 Y26.1799 F120.00
G01 X20.6557 Y26.2434 F120.00
G01 X20.4528 Y26.2755 F120.00
G01 X20.2472 Y26.2755 F120.00
G01 X20.0443 Y26.2434 F120.00
G01 X19.8489 Y26.1799 F120.00
G01 X19.6658 Y26.0866 F120.00
G01 X19.4995 Y25.9658 F120.00
G01 X19.3542 Y25.8205 F120.00
G01 X19.3313 Y25.7894 F120.00
G01 X19.3073 Y25.7620 F120.00
G01 X19.2933 Y25.7487 F120.00
G01 X19.2780 Y25.7369 F120.00
G01 X19.2700 Y25.7316 F120.00
G01 X19.2574 Y25.7244 F120.00
G01 X19.1956 Y25.6918 F120.00
G01 X19.1825 Y25.6855 F120.00
G01 X19.1690 Y25.6802 F120.00
G01 X19.1504 Y25.6747 F120.00
G01 X19.1362 Y25.6718 F120.00
G01 X19.1218 Y25.6700 F120.00
G01 X19.1073 Y25.6692 F120.00
G01 X19.0928 Y25.6696 F120.00
G01 X19.0183 Y25.6759 F120.00
G01 X18.9991 Y25.6785 F120.00
G01 X18.9850 Y25.6817 F120.00
G01 X18.9665 Y25.6876 F120.00
G01 X18.9488 Y25.6953 F120.00
G01 X18.9318 Y25.7047 F120.00
G01 X18.9159 Y25.7158 F120.00
G01 X18.8606 Y25.7585 F120.00
G01 X18.8534 Y25.7643 F120.00
G01 X18.8431 Y25.7737 F120.00
G01 X18.8366 Y25.7803 F120.00
G01 X18.8276 Y25.7909 F120.00
G01 X18.8058 Y25.8205 F120.00
G01 X18.6605 Y25.9658 F120.00
G01 X18.4942 Y26.0866 F120.00
G01 X18.3111 Y26.1799 F120.00
G01 X18.1157 Y26.2434 F120.00
G01 X17.9128 Y26.2755 F120.00
G01 X17.7072 Y26.2755 F120.00
G01 X17.5043 Y26.2434 F120.00
G01 X17.3089 Y26.1799 F120.00
G01 X17.1258 Y26.0866 F120.00
G01 X16.9595 Y25.9658 F120.00
G01 X16.8142 Y25.8205 F120.00
G01 X16.7913 Y25.7894 F120.00
G01 X16.7673 Y25.7620 F120.00
G01 X16.7533 Y25.7487 F120.00
G01 X16.7380 Y25.7369 F120.00
G01 X16.7300 Y25.7316 F120.00
G01 X16.7174 Y25.7244 F120.00
G01 X16.6556 Y25.6918 F120.00
G01 X16.6425 Y25.6855 F120.00
G01 X16.6336 Y25.6818 F120.00
G01 X16.6198 Y25.6772 F120.00
G01 X16.6057 Y25.6736 F120.00
G01 X16.5914 Y25.6711 F120.00
G01 X16.5721 Y25.6694 F120.00
G01 X16.5528 Y25.6696 F120.00
G01 X16.4783 Y25.6759 F120.00
G01 X16.4639 Y25.6777 F120.00
G01 X16.4450 Y25.6817 F120.00
G01 X16.4265 Y25.6876 F120.00
G01 X16.4088 Y25.6953 F120.00
G01 X16.3918 Y25.7047 F120.00
G01 X16.3759 Y25.7158 F120.00
G01 X16.3206 Y25.7585 F120.00
G01 X16.3134 Y25.7643 F120.00
G01 X16.3031 Y25.7737 F120.00
G01 X16.2966 Y25.7803 F120.00
G01 X16.2876 Y25.7909 F120.00
G01 X16.2658 Y25.8205 F120.00
G01 X16.1205 Y25.9658 F120.00
G01 X15.9542 Y26.0866 F120.00
G01 X15.7711 Y26.1799 F120.00
G01 X15.5757 Y26.2434 F120.00
G01 X15.3728 Y26.2755 F120.00
G01 X15.1672 Y26.2755 F120.00
G01 X14.9643 Y26.2434 F120.00
G01 X14.7689 Y26.1799 F120.00
G01 X14.5858 Y26.0866 F120.00
G01 X14.4195 Y25.9658 F120.00
G01 X14.2742 Y25.8205 F120.00
G01 X14.2513 Y25.7894 F120.00
G01 X14.2306 Y25.7655 F120.00
G01 X14.2169 Y25.7519 F120.00
G01 X14.2019 Y25.7397 F120.00
G01 X14.1858 Y25.7291 F120.00
G01 X14.1113 Y25.6896 F120.00
G01 X14.1025 Y25.6855 F120.00
G01 X14.0890 Y25.6802 F120.00
G01 X14.0751 Y25.6759 F120.00
G01 X14.0610 Y25.6726 F120.00
G01 X14.0466 Y25.6705 F120.00
G01 X14.0370 Y25.6696 F120.00
G01 X14.0224 Y25.6692 F120.00
G01 X14.0079 Y25.6699 F120.00
G01 X13.9335 Y25.6764 F120.00
G01 X13.9191 Y25.6785 F120.00
G01 X13.9050 Y25.6817 F120.00
G01 X13.8865 Y25.6876 F120.00
G01 X13.8688 Y25.6953 F120.00
G01 X13.8560 Y25.7022 F120.00
G01 X13.8398 Y25.7129 F120.00
G01 X13.7770 Y25.7613 F120.00
G01 X13.7631 Y25.7737 F120.00
G01 X13.7566 Y25.7803 F120.00
G01 X13.7476 Y25.7909 F120.00
G01 X13.7258 Y25.8205 F120.00
G01 X13.5805 Y25.9658 F120.00
G01 X13.4098 Y26.0900 F120.00
G01 X13.4029 Y26.0959 F120.00
G01 X13.3930 Y26.1052 F120.00
G01 X13.3584 Y26.1417 F120.00
G01 X13.3489 Y26.1526 F120.00
G01 X13.3374 Y26.1682 F120.00
G01 X13.3276 Y26.1849 F120.00
G01 X13.3213 Y26.1979 F120.00
G01 X13.3177 Y26.2069 F120.00
G01 X13.3131 Y26.2207 F120.00
G01 X13.2934 Y26.2877 F120.00
G01 X13.2890 Y26.3057 F120.00
G01 X13.2864 Y26.3241 F120.00
G01 X13.2855 Y26.3426 F120.00
G01 X13.2857 Y28.6864 F120.00
G01 X13.2868 Y28.6999 F120.00
G01 X13.2889 Y28.7134 F120.00
G01 X13.2983 Y28.7631 F120.00
G01 X13.3032 Y28.7818 F120.00
G01 X13.3100 Y28.7999 F120.00
G01 X13.3163 Y28.8130 F120.00
G01 X13.3261 Y28.8296 F120.00
G01 X13.3345 Y28.8414 F120.00
G01 X13.3801 Y28.9004 F120.00
G01 X13.3892 Y28.9109 F120.00
G01 X13.3991 Y28.9207 F120.00
G01 X13.4060 Y28.9269 F120.00
G01 X13.4170 Y28.9354 F120.00
G01 X13.5805 Y29.0542 F120.00
G01 X13.7258 Y29.1995 F120.00
G01 X13.8466 Y29.3658 F120.00
G01 X13.9399 Y29.5489 F120.00
G01 X14.0034 Y29.7443 F120.00
G01 X14.0355 Y29.9473 F120.00
G01 X14.0355 Y30.1528 F120.00
G01 X14.0034 Y30.3557 F120.00
G01 X13.9399 Y30.5511 F120.00
G01 X13.8466 Y30.7342 F120.00
G01 X13.7258 Y30.9005 F120.00
G01 X13.5805 Y31.0458 F120.00
G01 X13.4142 Y31.1666 F120.00
G01 X13.2311 Y31.2599 F120.00
G01 X13.0357 Y31.3234 F120.00
G01 X12.8328 Y31.3555 F120.00
G01 X12.6272 Y31.3555 F120.00
G01 X12.4243 Y31.3234 F120.00
G01 X12.2289 Y31.2599 F120.00
G01 X12.0458 Y31.1666 F120.00
G01 X11.8795 Y31.0458 F120.00
G01 X11.7342 Y30.9005 F120.00
G01 X11.6134 Y30.7342 F120.00
G01 X11.5201 Y30.5511 F120.00
G01 X11.4566 Y30.3557 F120.00
G01 X11.4245 Y30.1528 F120.00
G01 X11.4245 Y29.9472 F120.00
G01 X11.4566 Y29.7443 F120.00
G01 X11.5201 Y29.5489 F120.00
G01 X11.6134 Y29.3658 F120.00
G01 X11.7342 Y29.1995 F120.00
G01 X11.8795 Y29.0542 F120.00
G01 X12.0502 Y28.9300 F120.00
G01 X12.0605 Y28.9211 F120.00
G01 X12.0702 Y28.9116 F120.00
G01 X12.1049 Y28.8747 F120.00
G01 X12.1141 Y28.8636 F120.00
G01 X12.1252 Y28.8477 F120.00
G01 X12.1324 Y28.8351 F120.00
G01 X12.1387 Y28.8221 F120.00
G01 X12.1440 Y28.8086 F120.00
G01 X12.1690 Y28.7233 F120.00
G01 X12.1725 Y28.7051 F120.00
G01 X12.1743 Y28.6866 F120.00
G01 X12.1745 Y26.3426 F120.00
G01 X12.1737 Y26.3246 F120.00
G01 X12.1719 Y26.3111 F120.00
G01 X12.1627 Y26.2617 F120.00
G01 X12.1595 Y26.2475 F120.00
G01 X12.1536 Y26.2291 F120.00
G01 X12.1459 Y26.2113 F120.00
G01 X12.1390 Y26.1986 F120.00
G01 X12.1284 Y26.1824 F120.00
G01 X12.0828 Y26.1232 F120.00
G01 X12.0739 Y26.1125 F120.00
G01 X12.0609 Y26.0993 F120.00
G01 X12.0467 Y26.0873 F120.00
G01 X11.8795 Y25.9658 F120.00
G01 X11.7342 Y25.8205 F120.00
G01 X11.7113 Y25.7894 F120.00
G01 X11.6906 Y25.7655 F120.00
G01 X11.6769 Y25.7519 F120.00
G01 X11.6619 Y25.7397 F120.00
G01 X11.6458 Y25.7291 F120.00
G01 X11.5713 Y25.6896 F120.00
G01 X11.5581 Y25.6836 F120.00
G01 X11.5444 Y25.6786 F120.00
G01 X11.5304 Y25.6747 F120.00
G01 X11.5210 Y25.6726 F120.00
G01 X11.5066 Y25.6705 F120.00
G01 X11.4921 Y25.6694 F120.00
G01 X11.4776 Y25.6694 F120.00
G01 X11.4679 Y25.6699 F120.00
G01 X11.3887 Y25.6770 F120.00
G01 X11.3744 Y25.6795 F120.00
G01 X11.3650 Y25.6817 F120.00
G01 X11.3465 Y25.6876 F120.00
G01 X11.3331 Y25.6932 F120.00
G01 X11.3244 Y25.6975 F120.00
G01 X11.3118 Y25.7047 F120.00
G01 X11.3038 Y25.7101 F120.00
G01 X11.2406 Y25.7585 F120.00
G01 X11.2299 Y25.7673 F120.00
G01 X11.2198 Y25.7770 F120.00
G01 X11.2105 Y25.7873 F120.00
G01 X11.2047 Y25.7945 F120.00
G01 X11.1858 Y25.8205 F120.00
G01 X11.0405 Y25.9658 F120.00
G01 X10.8742 Y26.0866 F120.00
G01 X10.6911 Y26.1799 F120.00
G01 X10.4957 Y26.2434 F120.00
G01 X10.2928 Y26.2755 F120.00
G01 X10.0872 Y26.2755 F120.00
G01 X9.8843 Y26.2434 F120.00
G01 X9.6889 Y26.1799 F120.00
G01 X9.5058 Y26.0866 F120.00
G01 X9.3395 Y25.9658 F120.00
G01 X9.1942 Y25.8205 F120.00
G01 X9.1713 Y25.7894 F120.00
G01 X9.1473 Y25.7620 F120.00
G01 X9.1333 Y25.7487 F120.00
G01 X9.1180 Y25.7369 F120.00
G01 X9.1100 Y25.7316 F120.00
G01 X9.0974 Y25.7244 F120.00
G01 X9.0356 Y25.6918 F120.00
G01 X9.0225 Y25.6855 F120.00
G01 X9.0090 Y25.6802 F120.00
G01 X8.9951 Y25.6759 F120.00
G01 X8.9762 Y25.6718 F120.00
G01 X8.9618 Y25.6700 F120.00
G01 X8.9473 Y25.6692 F120.00
G01 X8.9328 Y25.6696 F120.00
G01 X8.8583 Y25.6759 F120.00
G01 X8.8391 Y25.6785 F120.00
G01 X8.8250 Y25.6817 F120.00
G01 X8.8065 Y25.6876 F120.00
G01 X8.7888 Y25.6953 F120.00
G01 X8.7718 Y25.7047 F120.00
G01 X8.7559 Y25.7158 F120.00
G01 X8.7006 Y25.7585 F120.00
G01 X8.6934 Y25.7643 F120.00
G01 X8.6831 Y25.7737 F120.00
G01 X8.6766 Y25.7803 F120.00
G01 X8.6676 Y25.7909 F120.00
G01 X8.6458 Y25.8205 F120.00
G01 X8.5005 Y25.9658 F120.00
G01 X8.3342 Y26.0866 F120.00
G01 X8.1511 Y26.1799 F120.00
G01 X7.9557 Y26.2434 F120.00
G01 X7.7528 Y26.2755 F120.00
G01 X7.5472 Y26.2755 F120.00
G01 X7.3443 Y26.2434 F120.00
G01 X7.1489 Y26.1799 F120.00
G01 X6.9658 Y26.0866 F120.00
G01 X6.7995 Y25.9658 F120.00
G00 Z2.0000
G00 X4.0113 Y29.5808
G01 F60.00
G01 Z-0.0400
G01 F120.00
G01 X2.2552 Y27.8248 F120.00
G01 X2.2290 Y27.7960 F120.00
G01 X2.2200 Y27.7848 F120.00
G01 X2.1999 Y27.7573 F120.00
G01 X2.1797 Y27.7240 F120.00
G01 X2.1731 Y27.7113 F120.00
G01 X2.1588 Y27.6803 F120.00
G01 X2.1455 Y27.6438 F120.00
G01 X2.1415 Y27.6300 F120.00
G01 X2.1334 Y27.5968 F120.00
G01 X2.1282 Y27.5631 F120.00
G01 X2.1266 Y27.5489 F120.00
G01 X2.1249 Y27.5148 F120.00
G01 X2.1249 Y26.1650 F120.00
G01 X1.5700 Y26.1650 F120.00
G01 X1.5604 Y26.1648 F120.00
G01 X1.5461 Y26.1635 F120.00
G01 X1.5320 Y26.1613 F120.00
G01 X1.5226 Y26.1592 F120.00
G01 X1.5088 Y26.1552 F120.00
G01 X1.4954 Y26.1502 F120.00
G01 X1.4781 Y26.1420 F120.00
G01 X1.4657 Y26.1347 F120.00
G01 X1.4538 Y26.1266 F120.00
G01 X1.4426 Y26.1177 F120.00
G01 X1.4288 Y26.1045 F120.00
G01 X1.4193 Y26.0937 F120.00
G01 X1.4106 Y26.0823 F120.00
G01 X1.4027 Y26.0702 F120.00
G01 X1.3937 Y26.0534 F120.00
G01 X1.3881 Y26.0402 F120.00
G01 X1.3834 Y26.0266 F120.00
G01 X1.3797 Y26.0127 F120.00
G01 X1.3765 Y25.9939 F120.00
G01 X1.3752 Y25.9796 F120.00
G01 X1.3750 Y23.9700 F120.00
G01 X1.3752 Y23.9604 F120.00
G01 X1.3765 Y23.9461 F120.00
G01 X1.3779 Y23.9367 F120.00
G01 X1.3808 Y23.9226 F120.00
G01 X1.3864 Y23.9043 F120.00
G01 X1.3917 Y23.8910 F120.00
G01 X1.3958 Y23.8823 F120.00
G01 X1.4027 Y23.8698 F120.00
G01 X1.4079 Y23.8617 F120.00
G01 X1.4163 Y23.8500 F120.00
G01 X1.4223 Y23.8426 F120.00
G01 X1.4321 Y23.8321 F120.00
G01 X1.4390 Y23.8255 F120.00
G01 X1.4463 Y23.8193 F120.00
G01 X1.4577 Y23.8106 F120.00
G01 X1.4698 Y23.8027 F120.00
G01 X1.4781 Y23.7980 F120.00
G01 X1.4866 Y23.7937 F120.00
G01 X1.4998 Y23.7881 F120.00
G01 X1.5134 Y23.7834 F120.00
G01 X1.5226 Y23.7808 F120.00
G01 X1.5414 Y23.7771 F120.00
G01 X1.5557 Y23.7755 F120.00
G01 X1.5700 Y23.7750 F120.00
G01 X2.1249 Y23.7750 F120.00
G01 X2.1249 Y23.0650 F120.00
G01 X2.1266 Y23.0261 F120.00
G01 X2.1282 Y23.0119 F120.00
G01 X2.1334 Y22.9782 F120.00
G01 X2.1427 Y22.9404 F120.00
G01 X2.1470 Y22.9267 F120.00
G01 X2.1588 Y22.8947 F120.00
G01 X2.1731 Y22.8637 F120.00
G01 X2.1797 Y22.8510 F120.00
G01 X2.1973 Y22.8217 F120.00
G01 X2.2054 Y22.8099 F120.00
G01 X2.2259 Y22.7826 F120.00
G01 X2.2552 Y22.7502 F120.00
G01 X3.5252 Y21.4802 F120.00
G01 X3.5576 Y21.4509 F120.00
G01 X3.5927 Y21.4249 F120.00
G01 X3.6302 Y21.4024 F120.00
G01 X3.6697 Y21.3838 F120.00
G01 X3.7108 Y21.3690 F120.00
G01 X3.7532 Y21.3584 F120.00
G01 X3.7964 Y21.3520 F120.00
G01 X3.8400 Y21.3499 F120.00
G01 X24.1600 Y21.3499 F120.00
G01 X24.1989 Y21.3516 F120.00
G01 X24.2131 Y21.3532 F120.00
G01 X24.2468 Y21.3584 F120.00
G01 X24.2800 Y21.3665 F120.00
G01 X24.2938 Y21.3705 F120.00
G01 X24.3303 Y21.3838 F120.00
G01 X24.3613 Y21.3981 F120.00
G01 X24.3740 Y21.4047 F120.00
G01 X24.4073 Y21.4249 F120.00
G01 X24.4348 Y21.4450 F120.00
G01 X24.4460 Y21.4540 F120.00
G01 X24.4748 Y21.4802 F120.00
G01 X25.7514 Y22.7572 F120.00
G01 X25.7741 Y22.7826 F120.00
G01 X25.8001 Y22.8177 F120.00
G01 X25.8226 Y22.8552 F120.00
G01 X25.8394 Y22.8903 F120.00
G01 X25.8447 Y22.9036 F120.00
G01 X25.8545 Y22.9312 F120.00
G01 X25.8573 Y22.9404 F120.00
G01 X25.8645 Y22.9688 F120.00
G01 X25.8682 Y22.9876 F120.00
G01 X25.8725 Y23.0166 F120.00
G01 X25.8734 Y23.0261 F120.00
G01 X25.8751 Y23.0650 F120.00
G01 X25.8751 Y41.4800 F120.00
G01 X25.8734 Y41.5189 F120.00
G01 X25.8718 Y41.5331 F120.00
G01 X25.8666 Y41.5668 F120.00
G01 X25.8585 Y41.6000 F120.00
G01 X25.8545 Y41.6138 F120.00
G01 X25.8412 Y41.6503 F120.00
G01 X25.8269 Y41.6813 F120.00
G01 X25.8203 Y41.6940 F120.00
G01 X25.8001 Y41.7273 F120.00
G01 X25.7800 Y41.7548 F120.00
G01 X25.7710 Y41.7660 F120.00
G01 X25.7448 Y41.7948 F120.00
G01 X24.1048 Y43.4348 F120.00
G01 X24.0724 Y43.4641 F120.00
G01 X24.0412 Y43.4874 F120.00
G01 X24.0292 Y43.4952 F120.00
G01 X23.9998 Y43.5126 F120.00
G01 X23.9647 Y43.5294 F120.00
G01 X23.9514 Y43.5347 F120.00
G01 X23.9192 Y43.5460 F120.00
G01 X23.8862 Y43.5545 F120.00
G01 X23.8721 Y43.5574 F120.00
G01 X23.8336 Y43.5630 F120.00
G01 X23.7900 Y43.5651 F120.00
G01 X23.1700 Y43.5651 F120.00
G01 X23.1700 Y44.3700 F120.00
G01 X23.1695 Y44.3843 F120.00
G01 X23.1685 Y44.3939 F120.00
G01 X23.1663 Y44.4080 F120.00
G01 X23.1629 Y44.4220 F120.00
G01 X23.1586 Y44.4357 F120.00
G01 X23.1552 Y44.4446 F120.00
G01 X23.1492 Y44.4577 F120.00
G01 X23.1423 Y44.4702 F120.00
G01 X23.1371 Y44.4783 F120.00
G01 X23.1287 Y44.4900 F120.00
G01 X23.1195 Y44.5010 F120.00
G01 X23.1095 Y44.5112 F120.00
G01 X23.0987 Y44.5207 F120.00
G01 X23.0873 Y44.5294 F120.00
G01 X23.0752 Y44.5373 F120.00
G01 X23.0627 Y44.5442 F120.00
G01 X23.0496 Y44.5502 F120.00
G01 X23.0407 Y44.5536 F120.00
G01 X23.0224 Y44.5592 F120.00
G01 X23.0083 Y44.5621 F120.00
G01 X22.9893 Y44.5645 F120.00
G01 X22.9750 Y44.5650 F120.00
G01 X18.4702 Y44.5649 F120.00
G01 X18.4559 Y44.5641 F120.00
G01 X18.4417 Y44.5621 F120.00
G01 X18.4276 Y44.5592 F120.00
G01 X18.4138 Y44.5552 F120.00
G01 X18.4004 Y44.5502 F120.00
G01 X18.3873 Y44.5442 F120.00
G01 X18.3748 Y44.5373 F120.00
G01 X18.3627 Y44.5294 F120.00
G01 X18.3513 Y44.5207 F120.00
G01 X18.3405 Y44.5112 F120.00
G01 X18.3305 Y44.5010 F120.00
G01 X18.3184 Y44.4862 F120.00
G01 X18.3103 Y44.4743 F120.00
G01 X18.3030 Y44.4619 F120.00
G01 X18.2967 Y44.4490 F120.00
G01 X18.2914 Y44.4357 F120.00
G01 X18.2871 Y44.4220 F120.00
G01 X18.2829 Y44.4033 F120.00
G01 X18.2805 Y44.3843 F120.00
G01 X18.2800 Y44.3700 F120.00
G01 X18.2801 Y41.8652 F120.00
G01 X18.2809 Y41.8509 F120.00
G01 X18.2821 Y41.8414 F120.00
G01 X18.2847 Y41.8273 F120.00
G01 X18.2884 Y41.8134 F120.00
G01 X18.2931 Y41.7998 F120.00
G01 X18.2987 Y41.7866 F120.00
G01 X18.3053 Y41.7739 F120.00
G01 X18.3129 Y41.7617 F120.00
G01 X18.3213 Y41.7500 F120.00
G01 X18.3273 Y41.7426 F120.00
G01 X18.3371 Y41.7321 F120.00
G01 X18.3476 Y41.7223 F120.00
G01 X18.3588 Y41.7134 F120.00
G01 X18.3707 Y41.7053 F120.00
G01 X18.3789 Y41.7003 F120.00
G01 X18.3916 Y41.6937 F120.00
G01 X18.4093 Y41.6864 F120.00
G01 X18.4184 Y41.6834 F120.00
G01 X18.4323 Y41.6797 F120.00
G01 X18.4511 Y41.6765 F120.00
G01 X18.4654 Y41.6752 F120.00
G01 X18.4750 Y41.6750 F120.00
G01 X22.9750 Y41.6750 F120.00
G01 X22.9941 Y41.6759 F120.00
G01 X23.0130 Y41.6787 F120.00
G01 X23.0316 Y41.6834 F120.00
G01 X23.0452 Y41.6881 F120.00
G01 X23.0584 Y41.6937 F120.00
G01 X23.0711 Y41.7003 F120.00
G01 X23.0833 Y41.7079 F120.00
G01 X23.0950 Y41.7163 F120.00
G01 X23.1060 Y41.7255 F120.00
G01 X23.1162 Y41.7355 F120.00
G01 X23.1257 Y41.7463 F120.00
G01 X23.1344 Y41.7577 F120.00
G01 X23.1423 Y41.7698 F120.00
G01 X23.1513 Y41.7866 F120.00
G01 X23.1569 Y41.7998 F120.00
G01 X23.1616 Y41.8134 F120.00
G01 X23.1653 Y41.8273 F120.00
G01 X23.1679 Y41.8414 F120.00
G01 X23.1695 Y41.8557 F120.00
G01 X23.1700 Y41.8700 F120.00
G01 X23.1700 Y42.6749 F120.00
G01 X23.6056 Y42.6749 F120.00
G01 X24.9849 Y41.2956 F120.00
G01 X24.9849 Y23.2494 F120.00
G01 X23.9756 Y22.2401 F120.00
G01 X4.0244 Y22.2401 F120.00
G01 X3.0151 Y23.2494 F120.00
G01 X3.0151 Y23.7750 F120.00
G01 X3.5700 Y23.7750 F120.00
G01 X3.5891 Y23.7759 F120.00
G01 X3.6080 Y23.7787 F120.00
G01 X3.6220 Y23.7821 F120.00
G01 X3.6357 Y23.7864 F120.00
G01 X3.6490 Y23.7917 F120.00
G01 X3.6619 Y23.7980 F120.00
G01 X3.6743 Y23.8053 F120.00
G01 X3.6823 Y23.8106 F120.00
G01 X3.6937 Y23.8193 F120.00
G01 X3.7045 Y23.8288 F120.00
G01 X3.7112 Y23.8355 F120.00
G01 X3.7207 Y23.8463 F120.00
G01 X3.7294 Y23.8577 F120.00
G01 X3.7373 Y23.8698 F120.00
G01 X3.7442 Y23.8823 F120.00
G01 X3.7502 Y23.8954 F120.00
G01 X3.7552 Y23.9088 F120.00
G01 X3.7579 Y23.9180 F120.00
G01 X3.7613 Y23.9320 F120.00
G01 X3.7635 Y23.9461 F120.00
G01 X3.7645 Y23.9557 F120.00
G01 X3.7650 Y23.9700 F120.00
G01 X3.7650 Y25.9700 F120.00
G01 X3.7645 Y25.9843 F120.00
G01 X3.7621 Y26.0033 F120.00
G01 X3.7592 Y26.0174 F120.00
G01 X3.7552 Y26.0312 F120.00
G01 X3.7483 Y26.0490 F120.00
G01 X3.7420 Y26.0619 F120.00
G01 X3.7321 Y26.0783 F120.00
G01 X3.7237 Y26.0900 F120.00
G01 X3.7112 Y26.1045 F120.00
G01 X3.7010 Y26.1145 F120.00
G01 X3.6900 Y26.1237 F120.00
G01 X3.6743 Y26.1347 F120.00
G01 X3.6577 Y26.1442 F120.00
G01 X3.6446 Y26.1502 F120.00
G01 X3.6312 Y26.1552 F120.00
G01 X3.6174 Y26.1592 F120.00
G01 X3.6033 Y26.1621 F120.00
G01 X3.5939 Y26.1635 F120.00
G01 X3.5796 Y26.1648 F120.00
G01 X3.5700 Y26.1650 F120.00
G01 X3.0151 Y26.1650 F120.00
G01 X3.0151 Y27.3256 F120.00
G01 X4.6408 Y28.9513 F120.00
G01 X4.6527 Y28.9460 F120.00
G01 X4.6616 Y28.9425 F120.00
G01 X4.7540 Y28.9095 F120.00
G01 X4.7723 Y28.9039 F120.00
G01 X4.8769 Y28.8780 F120.00
G01 X4.9929 Y28.8608 F120.00
G01 X5.1004 Y28.8552 F120.00
G01 X5.1196 Y28.8552 F120.00
G01 X5.2271 Y28.8608 F120.00
G01 X5.3431 Y28.8780 F120.00
G01 X5.4569 Y28.9065 F120.00
G01 X5.5584 Y28.9425 F120.00
G01 X5.5761 Y28.9498 F120.00
G01 X5.6733 Y28.9961 F120.00
G01 X5.7658 Y29.0513 F120.00
G01 X5.7817 Y29.0619 F120.00
G01 X5.8681 Y29.1263 F120.00
G01 X5.9550 Y29.2050 F120.00
G01 X6.0337 Y29.2919 F120.00
G01 X6.0981 Y29.3783 F120.00
G01 X6.1087 Y29.3942 F120.00
G01 X6.1639 Y29.4867 F120.00
G01 X6.2140 Y29.5927 F120.00
G01 X6.2505 Y29.6940 F120.00
G01 X6.2561 Y29.7123 F120.00
G01 X6.2820 Y29.8169 F120.00
G01 X6.2981 Y29.9234 F120.00
G01 X6.2999 Y29.9424 F120.00
G01 X6.3050 Y30.0500 F120.00
G01 X6.2992 Y30.1671 F120.00
G01 X6.2820 Y30.2831 F120.00
G01 X6.2561 Y30.3877 F120.00
G01 X6.2505 Y30.4060 F120.00
G01 X6.2140 Y30.5073 F120.00
G01 X6.1639 Y30.6133 F120.00
G01 X6.1036 Y30.7139 F120.00
G01 X6.0337 Y30.8081 F120.00
G01 X5.9550 Y30.8950 F120.00
G01 X5.8681 Y30.9737 F120.00
G01 X5.7739 Y31.0436 F120.00
G01 X5.6733 Y31.1039 F120.00
G01 X5.5673 Y31.1540 F120.00
G01 X5.4569 Y31.1935 F120.00
G01 X5.3431 Y31.2220 F120.00
G01 X5.2271 Y31.2392 F120.00
G01 X5.1100 Y31.2450 F120.00
G01 X4.9929 Y31.2392 F120.00
G01 X4.8769 Y31.2220 F120.00
G01 X4.7631 Y31.1935 F120.00
G01 X4.6527 Y31.1540 F120.00
G01 X4.5467 Y31.1039 F120.00
G01 X4.4461 Y31.0436 F120.00
G01 X4.3519 Y30.9737 F120.00
G01 X4.2650 Y30.8950 F120.00
G01 X4.1863 Y30.8081 F120.00
G01 X4.1164 Y30.7139 F120.00
G01 X4.0561 Y30.6133 F120.00
G01 X4.0060 Y30.5073 F120.00
G01 X3.9665 Y30.3969 F120.00
G01 X3.9380 Y30.2831 F120.00
G01 X3.9208 Y30.1671 F120.00
G01 X3.9150 Y30.0500 F120.00
G01 X3.9208 Y29.9329 F120.00
G01 X3.9380 Y29.8169 F120.00
G01 X3.9665 Y29.7031 F120.00
G01 X4.0025 Y29.6016 F120.00
G01 X4.0060 Y29.5927 F120.00
G01 X4.0113 Y29.5808 F120.00
G00 Z2.0000
G00 X1.2645 Y26.0074
G01 F60.00
G01 Z-0.0400
G01 F120.00
G01 X1.2645 Y23.9326 F120.00
G01 X1.2672 Y23.9077 F120.00
G01 X1.2991 Y23.8221 F120.00
G01 X1.3518 Y23.7518 F120.00
G01 X1.4221 Y23.6991 F120.00
G01 X1.5077 Y23.6672 F120.00
G01 X1.5326 Y23.6645 F120.00
G01 X1.7048 Y23.6643 F120.00
G01 X1.7187 Y23.6631 F120.00
G01 X1.7582 Y23.6575 F120.00
G01 X1.7679 Y23.6558 F120.00
G01 X1.7822 Y23.6525 F120.00
G01 X1.7963 Y23.6480 F120.00
G01 X1.8255 Y23.6368 F120.00
G01 X1.8386 Y23.6304 F120.00
G01 X1.8513 Y23.6231 F120.00
G01 X1.8672 Y23.6119 F120.00
G01 X1.8841 Y23.5975 F120.00
G01 X1.8987 Y23.5881 F120.00
G01 X1.9104 Y23.5795 F120.00
G01 X1.9214 Y23.5700 F120.00
G01 X1.9317 Y23.5598 F120.00
G01 X1.9412 Y23.5488 F120.00
G01 X1.9598 Y23.5240 F120.00
G01 X1.9677 Y23.5118 F120.00
G01 X1.9767 Y23.4946 F120.00
G01 X1.9840 Y23.4767 F120.00
G01 X1.9904 Y23.4555 F120.00
G01 X1.9976 Y23.4397 F120.00
G01 X2.0028 Y23.4262 F120.00
G01 X2.0081 Y23.4075 F120.00
G01 X2.0109 Y23.3933 F120.00
G01 X2.0126 Y23.3789 F120.00
G01 X2.0143 Y23.3548 F120.00
G01 X2.0145 Y23.3455 F120.00
G01 X2.0145 Y23.0103 F120.00
G01 X2.0358 Y22.9030 F120.00
G01 X2.0777 Y22.8019 F120.00
G01 X2.1385 Y22.7109 F120.00
G01 X3.4859 Y21.3635 F120.00
G01 X3.5769 Y21.3027 F120.00
G01 X3.6780 Y21.2608 F120.00
G01 X3.7853 Y21.2395 F120.00
G01 X24.2147 Y21.2395 F120.00
G01 X24.3220 Y21.2608 F120.00
G01 X24.4231 Y21.3027 F120.00
G01 X24.5141 Y21.3635 F120.00
G01 X25.8615 Y22.7109 F120.00
G01 X25.9223 Y22.8019 F120.00
G01 X25.9642 Y22.9030 F120.00
G01 X25.9855 Y23.0103 F120.00
G01 X25.9855 Y41.5347 F120.00
G01 X25.9642 Y41.6420 F120.00
G01 X25.9223 Y41.7431 F120.00
G01 X25.8615 Y41.8341 F120.00
G01 X24.1441 Y43.5515 F120.00
G01 X24.0531 Y43.6123 F120.00
G01 X23.9520 Y43.6542 F120.00
G01 X23.8447 Y43.6755 F120.00
G01 X23.5902 Y43.6757 F120.00
G01 X23.5763 Y43.6769 F120.00
G01 X23.5626 Y43.6790 F120.00
G01 X23.5065 Y43.6912 F120.00
G01 X23.4924 Y43.6948 F120.00
G01 X23.4785 Y43.6995 F120.00
G01 X23.4651 Y43.7052 F120.00
G01 X23.4521 Y43.7119 F120.00
G01 X23.4356 Y43.7223 F120.00
G01 X23.4203 Y43.7343 F120.00
G01 X23.3675 Y43.7801 F120.00
G01 X23.3569 Y43.7900 F120.00
G01 X23.3439 Y43.8044 F120.00
G01 X23.3325 Y43.8200 F120.00
G01 X23.3226 Y43.8367 F120.00
G01 X23.3145 Y43.8542 F120.00
G01 X23.3081 Y43.8725 F120.00
G01 X23.2871 Y43.9440 F120.00
G01 X23.2840 Y43.9576 F120.00
G01 X23.2819 Y43.9714 F120.00
G01 X23.2807 Y43.9852 F120.00
G01 X23.2805 Y43.9945 F120.00
G01 X23.2805 Y44.4074 F120.00
G01 X23.2778 Y44.4323 F120.00
G01 X23.2459 Y44.5179 F120.00
G01 X23.1932 Y44.5882 F120.00
G01 X23.1229 Y44.6409 F120.00
G01 X23.0373 Y44.6728 F120.00
G01 X23.0124 Y44.6755 F120.00
G01 X18.4376 Y44.6755 F120.00
G01 X18.4127 Y44.6728 F120.00
G01 X18.3271 Y44.6409 F120.00
G01 X18.2568 Y44.5882 F120.00
G01 X18.2041 Y44.5179 F120.00
G01 X18.1722 Y44.4323 F120.00
G01 X18.1695 Y44.4074 F120.00
G01 X18.1695 Y41.8326 F120.00
G01 X18.1722 Y41.8077 F120.00
G01 X18.2041 Y41.7221 F120.00
G01 X18.2568 Y41.6518 F120.00
G01 X18.3271 Y41.5991 F120.00
G01 X18.4127 Y41.5672 F120.00
G01 X18.4376 Y41.5645 F120.00
G01 X23.0124 Y41.5645 F120.00
G01 X23.0373 Y41.5672 F120.00
G01 X23.1229 Y41.5991 F120.00
G01 X23.1932 Y41.6518 F120.00
G01 X23.2459 Y41.7221 F120.00
G01 X23.2778 Y41.8077 F120.00
G01 X23.2805 Y41.8326 F120.00
G01 X23.2805 Y42.0738 F120.00
G01 X23.2815 Y42.0992 F120.00
G01 X23.2841 Y42.1183 F120.00
G01 X23.2873 Y42.1324 F120.00
G01 X23.2915 Y42.1462 F120.00
G01 X23.3193 Y42.2207 F120.00
G01 X23.3252 Y42.2340 F120.00
G01 X23.3297 Y42.2426 F120.00
G01 X23.3346 Y42.2509 F120.00
G01 X23.3427 Y42.2630 F120.00
G01 X23.3517 Y42.2744 F120.00
G01 X23.3615 Y42.2851 F120.00
G01 X23.3685 Y42.2918 F120.00
G01 X23.3795 Y42.3012 F120.00
G01 X23.4472 Y42.3517 F120.00
G01 X23.4638 Y42.3617 F120.00
G01 X23.4813 Y42.3700 F120.00
G01 X23.4949 Y42.3751 F120.00
G01 X23.5088 Y42.3791 F120.00
G01 X23.5183 Y42.3812 F120.00
G01 X23.5326 Y42.3835 F120.00
G01 X23.6168 Y42.3897 F120.00
G01 X23.6313 Y42.3899 F120.00
G01 X23.6410 Y42.3893 F120.00
G01 X23.6554 Y42.3877 F120.00
G01 X23.6744 Y42.3838 F120.00
G01 X23.6929 Y42.3781 F120.00
G01 X23.7107 Y42.3705 F120.00
G01 X23.7887 Y42.3280 F120.00
G01 X23.7965 Y42.3229 F120.00
G01 X23.8077 Y42.3147 F120.00
G01 X23.8149 Y42.3088 F120.00
G01 X23.8251 Y42.2993 F120.00
G01 X24.7811 Y41.3433 F120.00
G01 X24.7883 Y41.3358 F120.00
G01 X24.8117 Y41.3072 F120.00
G01 X24.8202 Y41.2957 F120.00
G01 X24.8303 Y41.2794 F120.00
G01 X24.8368 Y41.2666 F120.00
G01 X24.8424 Y41.2534 F120.00
G01 X24.8455 Y41.2443 F120.00
G01 X24.8679 Y41.1682 F120.00
G01 X24.8700 Y41.1592 F120.00
G01 X24.8725 Y41.1455 F120.00
G01 X24.8740 Y41.1317 F120.00
G01 X24.8745 Y41.1178 F120.00
G01 X24.8745 Y23.4272 F120.00
G01 X24.8742 Y23.4168 F120.00
G01 X24.8705 Y23.3800 F120.00
G01 X24.8676 Y23.3611 F120.00
G01 X24.8628 Y23.3426 F120.00
G01 X24.8561 Y23.3246 F120.00
G01 X24.8478 Y23.3074 F120.00
G01 X24.8121 Y23.2420 F120.00
G01 X24.8072 Y23.2341 F120.00
G01 X24.7993 Y23.2227 F120.00
G01 X24.7875 Y23.2084 F120.00
G01 X24.0233 Y22.4439 F120.00
G01 X24.0158 Y22.4367 F120.00
G01 X24.0078 Y22.4300 F120.00
G01 X23.9834 Y22.4104 F120.00
G01 X23.9717 Y22.4021 F120.00
G01 X23.9594 Y22.3947 F120.00
G01 X23.9466 Y22.3882 F120.00
G01 X23.9334 Y22.3826 F120.00
G01 X23.9197 Y22.3781 F120.00
G01 X23.8527 Y22.3584 F120.00
G01 X23.8392 Y22.3550 F120.00
G01 X23.8255 Y22.3525 F120.00
G01 X23.8163 Y22.3514 F120.00
G01 X23.7978 Y22.3505 F120.00
G01 X4.2022 Y22.3505 F120.00
G01 X4.1918 Y22.3508 F120.00
G01 X4.1814 Y22.3516 F120.00
G01 X4.1503 Y22.3550 F120.00
G01 X4.1361 Y22.3574 F120.00
G01 X4.1268 Y22.3596 F120.00
G01 X4.1131 Y22.3637 F120.00
G01 X4.1041 Y22.3670 F120.00
G01 X4.0909 Y22.3728 F120.00
G01 X4.0131 Y22.4153 F120.00
G01 X3.9977 Y22.4257 F120.00
G01 X3.9869 Y22.4344 F120.00
G01 X3.9800 Y22.4407 F120.00
G01 X3.2958 Y23.1249 F120.00
G01 X3.2834 Y23.1386 F120.00
G01 X3.2745 Y23.1500 F120.00
G01 X3.2665 Y23.1620 F120.00
G01 X3.2594 Y23.1746 F120.00
G01 X3.2223 Y23.2558 F120.00
G01 X3.2161 Y23.2741 F120.00
G01 X3.2126 Y23.2882 F120.00
G01 X3.2101 Y23.3025 F120.00
G01 X3.2088 Y23.3170 F120.00
G01 X3.2085 Y23.3315 F120.00
G01 X3.2093 Y23.3460 F120.00
G01 X3.2220 Y23.4343 F120.00
G01 X3.2253 Y23.4485 F120.00
G01 X3.2314 Y23.4669 F120.00
G01 X3.2351 Y23.4758 F120.00
G01 X3.2414 Y23.4889 F120.00
G01 X3.2487 Y23.5014 F120.00
G01 X3.2570 Y23.5134 F120.00
G01 X3.2661 Y23.5247 F120.00
G01 X3.3118 Y23.5775 F120.00
G01 X3.3252 Y23.5915 F120.00
G01 X3.3399 Y23.6041 F120.00
G01 X3.3517 Y23.6125 F120.00
G01 X3.3641 Y23.6201 F120.00
G01 X3.3815 Y23.6287 F120.00
G01 X3.3996 Y23.6355 F120.00
G01 X3.4758 Y23.6579 F120.00
G01 X3.4848 Y23.6600 F120.00
G01 X3.4985 Y23.6625 F120.00
G01 X3.5170 Y23.6643 F120.00
G01 X3.6074 Y23.6645 F120.00
G01 X3.6323 Y23.6672 F120.00
G01 X3.7179 Y23.6991 F120.00
G01 X3.7882 Y23.7518 F120.00
G01 X3.8409 Y23.8221 F120.00
G01 X3.8728 Y23.9077 F120.00
G01 X3.8755 Y23.9326 F120.00
G01 X3.8755 Y26.0074 F120.00
G01 X3.8728 Y26.0323 F120.00
G01 X3.8409 Y26.1179 F120.00
G01 X3.7882 Y26.1882 F120.00
G01 X3.7179 Y26.2409 F120.00
G01 X3.6323 Y26.2728 F120.00
G01 X3.6074 Y26.2755 F120.00
G01 X3.4445 Y26.2755 F120.00
G01 X3.4306 Y26.2760 F120.00
G01 X3.4167 Y26.2775 F120.00
G01 X3.4030 Y26.2800 F120.00
G01 X3.3468 Y26.2923 F120.00
G01 X3.3327 Y26.2962 F120.00
G01 X3.3145 Y26.3032 F120.00
G01 X3.2971 Y26.3119 F120.00
G01 X3.2806 Y26.3223 F120.00
G01 X3.2690 Y26.3312 F120.00
G01 X3.2125 Y26.3801 F120.00
G01 X3.2019 Y26.3900 F120.00
G01 X3.1889 Y26.4044 F120.00
G01 X3.1802 Y26.4160 F120.00
G01 X3.1748 Y26.4241 F120.00
G01 X3.1676 Y26.4367 F120.00
G01 X3.1613 Y26.4498 F120.00
G01 X3.1577 Y26.4587 F120.00
G01 X3.1531 Y26.4725 F120.00
G01 X3.1310 Y26.5485 F120.00
G01 X3.1275 Y26.5667 F120.00
G01 X3.1257 Y26.5852 F120.00
G01 X3.1255 Y27.1478 F120.00
G01 X3.1261 Y27.1634 F120.00
G01 X3.1307 Y27.2045 F120.00
G01 X3.1346 Y27.2232 F120.00
G01 X3.1387 Y27.2369 F120.00
G01 X3.1439 Y27.2504 F120.00
G01 X3.1499 Y27.2634 F120.00
G01 X3.1903 Y27.3369 F120.00
G01 X3.2007 Y27.3523 F120.00
G01 X3.2094 Y27.3631 F120.00
G01 X3.2157 Y27.3700 F120.00
G01 X4.5322 Y28.6866 F120.00
G01 X4.5456 Y28.6988 F120.00
G01 X4.5600 Y28.7097 F120.00
G01 X4.5978 Y28.7355 F120.00
G01 X4.6101 Y28.7433 F120.00
G01 X4.6273 Y28.7521 F120.00
G01 X4.6452 Y28.7592 F120.00
G01 X4.6638 Y28.7645 F120.00
G01 X4.6781 Y28.7673 F120.00
G01 X4.7522 Y28.7769 F120.00
G01 X4.7660 Y28.7782 F120.00
G01 X4.7846 Y28.7784 F120.00
G01 X4.8031 Y28.7768 F120.00
G01 X5.0072 Y28.7445 F120.00
G01 X5.2127 Y28.7445 F120.00
G01 X5.4157 Y28.7766 F120.00
G01 X5.6111 Y28.8401 F120.00
G01 X5.7942 Y28.9334 F120.00
G01 X5.9605 Y29.0542 F120.00
G01 X6.1058 Y29.1995 F120.00
G01 X6.2266 Y29.3658 F120.00
G01 X6.3199 Y29.5489 F120.00
G01 X6.3834 Y29.7443 F120.00
G01 X6.4155 Y29.9473 F120.00
G01 X6.4155 Y30.1528 F120.00
G01 X6.3834 Y30.3557 F120.00
G01 X6.3199 Y30.5511 F120.00
G01 X6.2266 Y30.7342 F120.00
G01 X6.1058 Y30.9005 F120.00
G01 X5.9605 Y31.0458 F120.00
G01 X5.7942 Y31.1666 F120.00
G01 X5.6111 Y31.2599 F120.00
G01 X5.4157 Y31.3234 F120.00
G01 X5.2128 Y31.3555 F120.00
G01 X5.0072 Y31.3555 F120.00
G01 X4.8043 Y31.3234 F120.00
G01 X4.6089 Y31.2599 F120.00
G01 X4.4258 Y31.1666 F120.00
G01 X4.2595 Y31.0458 F120.00
G01 X4.1142 Y30.9005 F120.00
G01 X3.9934 Y30.7342 F120.00
G01 X3.9001 Y30.5511 F120.00
G01 X3.8366 Y30.3557 F120.00
G01 X3.8045 Y30.1528 F120.00
G01 X3.8045 Y29.9472 F120.00
G01 X3.8373 Y29.7387 F120.00
G01 X3.8381 Y29.7297 F120.00
G01 X3.8385 Y29.7161 F120.00
G01 X3.8366 Y29.6562 F120.00
G01 X3.8349 Y29.6418 F120.00
G01 X3.8322 Y29.6275 F120.00
G01 X3.8284 Y29.6135 F120.00
G01 X3.8218 Y29.5954 F120.00
G01 X3.8134 Y29.5780 F120.00
G01 X3.7776 Y29.5126 F120.00
G01 X3.7702 Y29.5008 F120.00
G01 X3.7620 Y29.4895 F120.00
G01 X3.7530 Y29.4789 F120.00
G01 X3.7466 Y29.4722 F120.00
G01 X2.1385 Y27.8641 F120.00
G01 X2.0777 Y27.7731 F120.00
G01 X2.0358 Y27.6720 F120.00
G01 X2.0145 Y27.5647 F120.00
G01 X2.0144 Y26.5899 F120.00
G01 X2.0136 Y26.5760 F120.00
G01 X2.0118 Y26.5622 F120.00
G01 X1.9988 Y26.5015 F120.00
G01 X1.9937 Y26.4827 F120.00
G01 X1.9905 Y26.4735 F120.00
G01 X1.9848 Y26.4601 F120.00
G01 X1.9804 Y26.4514 F120.00
G01 X1.9731 Y26.4387 F120.00
G01 X1.9619 Y26.4228 F120.00
G01 X1.9099 Y26.3625 F120.00
G01 X1.9000 Y26.3519 F120.00
G01 X1.8856 Y26.3389 F120.00
G01 X1.8779 Y26.3330 F120.00
G01 X1.8659 Y26.3248 F120.00
G01 X1.8490 Y26.3154 F120.00
G01 X1.8313 Y26.3077 F120.00
G01 X1.8175 Y26.3031 F120.00
G01 X1.7460 Y26.2821 F120.00
G01 X1.7324 Y26.2790 F120.00
G01 X1.7187 Y26.2769 F120.00
G01 X1.7048 Y26.2757 F120.00
G01 X1.6955 Y26.2755 F120.00
G01 X1.5326 Y26.2755 F120.00
G01 X1.5077 Y26.2728 F120.00
G01 X1.4221 Y26.2409 F120.00
G01 X1.3518 Y26.1882 F120.00
G01 X1.2991 Y26.1179 F120.00
G01 X1.2672 Y26.0323 F120.00
G01 X1.2645 Y26.0074 F120.00
G00 Z2.0000
G00 X12.2849 Y28.9414
G01 F60.00
G01 Z-0.0400
G01 F120.00
G01 X12.2849 Y26.0786 F120.00
G01 X12.2727 Y26.0740 F120.00
G01 X12.2639 Y26.0702 F120.00
G01 X12.1752 Y26.0282 F120.00
G01 X12.1584 Y26.0192 F120.00
G01 X12.0661 Y25.9636 F120.00
G01 X11.9719 Y25.8937 F120.00
G01 X11.8850 Y25.8150 F120.00
G01 X11.8125 Y25.7353 F120.00
G01 X11.8004 Y25.7206 F120.00
G01 X11.7419 Y25.6417 F120.00
G01 X11.7313 Y25.6258 F120.00
G01 X11.6761 Y25.5333 F120.00
G01 X11.6260 Y25.4273 F120.00
G01 X11.5865 Y25.3169 F120.00
G01 X11.5601 Y25.2125 F120.00
G01 X11.5563 Y25.1937 F120.00
G01 X11.5419 Y25.0966 F120.00
G01 X11.5401 Y25.0776 F120.00
G01 X11.5350 Y24.9700 F120.00
G01 X11.5408 Y24.8529 F120.00
G01 X11.5580 Y24.7369 F120.00
G01 X11.5865 Y24.6231 F120.00
G01 X11.6260 Y24.5127 F120.00
G01 X11.6761 Y24.4067 F120.00
G01 X11.7364 Y24.3061 F120.00
G01 X11.8063 Y24.2119 F120.00
G01 X11.8850 Y24.1250 F120.00
G01 X11.9719 Y24.0463 F120.00
G01 X12.0661 Y23.9764 F120.00
G01 X12.1667 Y23.9161 F120.00
G01 X12.2727 Y23.8660 F120.00
G01 X12.3831 Y23.8265 F120.00
G01 X12.4969 Y23.7980 F120.00
G01 X12.6129 Y23.7808 F120.00
G01 X12.7300 Y23.7750 F120.00
G01 X12.8471 Y23.7808 F120.00
G01 X12.9631 Y23.7980 F120.00
G01 X13.0769 Y23.8265 F120.00
G01 X13.1873 Y23.8660 F120.00
G01 X13.2848 Y23.9118 F120.00
G01 X13.3016 Y23.9208 F120.00
G01 X13.3858 Y23.9713 F120.00
G01 X13.4017 Y23.9819 F120.00
G01 X13.4881 Y24.0463 F120.00
G01 X13.5681 Y24.1184 F120.00
G01 X13.5816 Y24.1319 F120.00
G01 X13.6537 Y24.2119 F120.00
G01 X13.7236 Y24.3061 F120.00
G01 X13.7839 Y24.4067 F120.00
G01 X13.8340 Y24.5127 F120.00
G01 X13.8735 Y24.6231 F120.00
G01 X13.9020 Y24.7369 F120.00
G01 X13.9192 Y24.8529 F120.00
G01 X13.9248 Y24.9604 F120.00
G01 X13.9248 Y24.9796 F120.00
G01 X13.9199 Y25.0776 F120.00
G01 X13.9181 Y25.0966 F120.00
G01 X13.9020 Y25.2031 F120.00
G01 X13.8735 Y25.3169 F120.00
G01 X13.8375 Y25.4184 F120.00
G01 X13.8302 Y25.4361 F120.00
G01 X13.7839 Y25.5333 F120.00
G01 X13.7236 Y25.6339 F120.00
G01 X13.6537 Y25.7281 F120.00
G01 X13.5816 Y25.8081 F120.00
G01 X13.5681 Y25.8216 F120.00
G01 X13.4881 Y25.8937 F120.00
G01 X13.3939 Y25.9636 F120.00
G01 X13.3016 Y26.0192 F120.00
G01 X13.2848 Y26.0282 F120.00
G01 X13.1961 Y26.0702 F120.00
G01 X13.1873 Y26.0740 F120.00
G01 X13.1751 Y26.0786 F120.00
G01 X13.1751 Y28.9414 F120.00
G01 X13.1873 Y28.9460 F120.00
G01 X13.1961 Y28.9498 F120.00
G01 X13.2848 Y28.9918 F120.00
G01 X13.3016 Y29.0008 F120.00
G01 X13.3939 Y29.0564 F120.00
G01 X13.4881 Y29.1263 F120.00
G01 X13.5681 Y29.1984 F120.00
G01 X13.5816 Y29.2119 F120.00
G01 X13.6537 Y29.2919 F120.00
G01 X13.7236 Y29.3861 F120.00
G01 X13.7792 Y29.4784 F120.00
G01 X13.7882 Y29.4952 F120.00
G01 X13.8340 Y29.5927 F120.00
G01 X13.8735 Y29.7031 F120.00
G01 X13.9020 Y29.8169 F120.00
G01 X13.9181 Y29.9234 F120.00
G01 X13.9199 Y29.9424 F120.00
G01 X13.9250 Y30.0500 F120.00
G01 X13.9199 Y30.1576 F120.00
G01 X13.9181 Y30.1766 F120.00
G01 X13.9020 Y30.2831 F120.00
G01 X13.8735 Y30.3969 F120.00
G01 X13.8375 Y30.4984 F120.00
G01 X13.8302 Y30.5161 F120.00
G01 X13.7839 Y30.6133 F120.00
G01 X13.7236 Y30.7139 F120.00
G01 X13.6537 Y30.8081 F120.00
G01 X13.5816 Y30.8881 F120.00
G01 X13.5681 Y30.9016 F120.00
G01 X13.4881 Y30.9737 F120.00
G01 X13.4017 Y31.0381 F120.00
G01 X13.3858 Y31.0487 F120.00
G01 X13.2933 Y31.1039 F120.00
G01 X13.1873 Y31.1540 F120.00
G01 X13.0769 Y31.1935 F120.00
G01 X12.9631 Y31.2220 F120.00
G01 X12.8471 Y31.2392 F120.00
G01 X12.7300 Y31.2450 F120.00
G01 X12.6129 Y31.2392 F120.00
G01 X12.4969 Y31.2220 F120.00
G01 X12.3831 Y31.1935 F120.00
G01 X12.2727 Y31.1540 F120.00
G01 X12.1667 Y31.1039 F120.00
G01 X12.0661 Y31.0436 F120.00
G01 X11.9719 Y30.9737 F120.00
G01 X11.8850 Y30.8950 F120.00
G01 X11.8063 Y30.8081 F120.00
G01 X11.7364 Y30.7139 F120.00
G01 X11.6761 Y30.6133 F120.00
G01 X11.6260 Y30.5073 F120.00
G01 X11.5865 Y30.3969 F120.00
G01 X11.5580 Y30.2831 F120.00
G01 X11.5408 Y30.1671 F120.00
G01 X11.5350 Y30.0500 F120.00
G01 X11.5408 Y29.9329 F120.00
G01 X11.5580 Y29.8169 F120.00
G01 X11.5865 Y29.7031 F120.00
G01 X11.6260 Y29.5927 F120.00
G01 X11.6761 Y29.4867 F120.00
G01 X11.7364 Y29.3861 F120.00
G01 X11.8063 Y29.2919 F120.00
G01 X11.8850 Y29.2050 F120.00
G01 X11.9719 Y29.1263 F120.00
G01 X12.0661 Y29.0564 F120.00
G01 X12.1667 Y28.9961 F120.00
G01 X12.2639 Y28.9498 F120.00
G01 X12.2727 Y28.9460 F120.00
G01 X12.2849 Y28.9414 F120.00
G00 Z2.0000
G00 X6.2186 Y39.7649
G01 F60.00
G01 Z-0.0400
G01 F120.00
G01 X7.6500 Y39.7649 F120.00
G01 X7.6841 Y39.7663 F120.00
G01 X7.6984 Y39.7675 F120.00
G01 X7.7274 Y39.7718 F120.00
G01 X7.7462 Y39.7755 F120.00
G01 X7.7792 Y39.7840 F120.00
G01 X7.8203 Y39.7988 F120.00
G01 X7.8556 Y39.8152 F120.00
G01 X7.8682 Y39.8222 F120.00
G01 X7.8973 Y39.8399 F120.00
G01 X7.9324 Y39.8659 F120.00
G01 X7.9648 Y39.8952 F120.00
G01 X10.5048 Y42.4352 F120.00
G01 X10.5341 Y42.4676 F120.00
G01 X10.5546 Y42.4949 F120.00
G01 X10.5627 Y42.5067 F120.00
G01 X10.5826 Y42.5402 F120.00
G01 X10.5974 Y42.5709 F120.00
G01 X10.6030 Y42.5841 F120.00
G01 X10.6160 Y42.6208 F120.00
G01 X10.6256 Y42.6585 F120.00
G01 X10.6282 Y42.6726 F120.00
G01 X10.6330 Y42.7064 F120.00
G01 X10.6349 Y42.7404 F120.00
G01 X10.6351 Y44.1814 F120.00
G01 X10.6473 Y44.1860 F120.00
G01 X10.6561 Y44.1898 F120.00
G01 X10.7533 Y44.2361 F120.00
G01 X10.8539 Y44.2964 F120.00
G01 X10.9481 Y44.3663 F120.00
G01 X11.0350 Y44.4450 F120.00
G01 X11.1137 Y44.5319 F120.00
G01 X11.1836 Y44.6261 F120.00
G01 X11.2439 Y44.7267 F120.00
G01 X11.2902 Y44.8239 F120.00
G01 X11.2940 Y44.8327 F120.00
G01 X11.2986 Y44.8449 F120.00
G01 X12.5456 Y44.8449 F120.00
G01 X18.7010 Y38.6895 F120.00
G01 X18.6080 Y38.5867 F120.00
G01 X18.5290 Y38.4806 F120.00
G01 X18.5184 Y38.4647 F120.00
G01 X18.4553 Y38.3595 F120.00
G01 X18.4463 Y38.3426 F120.00
G01 X18.3900 Y38.2230 F120.00
G01 X18.3452 Y38.0985 F120.00
G01 X18.3397 Y38.0802 F120.00
G01 X18.3078 Y37.9519 F120.00
G01 X18.2870 Y37.8116 F120.00
G01 X18.2800 Y37.6700 F120.00
G01 X18.2870 Y37.5284 F120.00
G01 X18.3078 Y37.3881 F120.00
G01 X18.3422 Y37.2505 F120.00
G01 X18.3900 Y37.1170 F120.00
G01 X18.4463 Y36.9974 F120.00
G01 X18.4553 Y36.9805 F120.00
G01 X18.5184 Y36.8753 F120.00
G01 X18.5290 Y36.8594 F120.00
G01 X18.6080 Y36.7533 F120.00
G01 X18.6966 Y36.6552 F120.00
G01 X18.7102 Y36.6416 F120.00
G01 X18.8083 Y36.5530 F120.00
G01 X18.9183 Y36.4712 F120.00
G01 X18.9303 Y36.4634 F120.00
G01 X19.0355 Y36.4003 F120.00
G01 X19.0524 Y36.3913 F120.00
G01 X19.1720 Y36.3350 F120.00
G01 X19.2965 Y36.2902 F120.00
G01 X19.3148 Y36.2847 F120.00
G01 X19.4431 Y36.2528 F120.00
G01 X19.5739 Y36.2331 F120.00
G01 X19.5881 Y36.2315 F120.00
G01 X19.7250 Y36.2250 F120.00
G01 X21.7250 Y36.2250 F120.00
G01 X21.8666 Y36.2320 F120.00
G01 X21.9975 Y36.2511 F120.00
G01 X22.0162 Y36.2549 F120.00
G01 X22.1445 Y36.2872 F120.00
G01 X22.2780 Y36.3350 F120.00
G01 X22.4062 Y36.3956 F120.00
G01 X22.5197 Y36.4634 F120.00
G01 X22.5356 Y36.4740 F120.00
G01 X22.6342 Y36.5471 F120.00
G01 X22.6489 Y36.5593 F120.00
G01 X22.7468 Y36.6482 F120.00
G01 X22.8357 Y36.7461 F120.00
G01 X22.8479 Y36.7608 F120.00
G01 X22.9210 Y36.8594 F120.00
G01 X22.9316 Y36.8753 F120.00
G01 X22.9994 Y36.9888 F120.00
G01 X23.0600 Y37.1170 F120.00
G01 X23.1048 Y37.2415 F120.00
G01 X23.1103 Y37.2598 F120.00
G01 X23.1422 Y37.3881 F120.00
G01 X23.1625 Y37.5236 F120.00
G01 X23.1637 Y37.5379 F120.00
G01 X23.1698 Y37.6604 F120.00
G01 X23.1698 Y37.6796 F120.00
G01 X23.1630 Y37.8116 F120.00
G01 X23.1422 Y37.9519 F120.00
G01 X23.1078 Y38.0895 F120.00
G01 X23.0635 Y38.2140 F120.00
G01 X23.0561 Y38.2317 F120.00
G01 X23.0037 Y38.3426 F120.00
G01 X22.9947 Y38.3595 F120.00
G01 X22.9265 Y38.4728 F120.00
G01 X22.8420 Y38.5867 F120.00
G01 X22.7468 Y38.6918 F120.00
G01 X22.6489 Y38.7807 F120.00
G01 X22.6342 Y38.7929 F120.00
G01 X22.5356 Y38.8660 F120.00
G01 X22.5197 Y38.8766 F120.00
G01 X22.4062 Y38.9444 F120.00
G01 X22.2824 Y39.0031 F120.00
G01 X22.2690 Y39.0085 F120.00
G01 X22.1445 Y39.0528 F120.00
G01 X22.0069 Y39.0872 F120.00
G01 X21.8666 Y39.1080 F120.00
G01 X21.7298 Y39.1149 F120.00
G01 X19.7250 Y39.1150 F120.00
G01 X19.5881 Y39.1085 F120.00
G01 X19.5786 Y39.1075 F120.00
G01 X19.5467 Y39.1028 F120.00
G01 X13.0448 Y45.6048 F120.00
G01 X13.0124 Y45.6341 F120.00
G01 X12.9812 Y45.6574 F120.00
G01 X12.9733 Y45.6627 F120.00
G01 X12.9482 Y45.6778 F120.00
G01 X12.9313 Y45.6869 F120.00
G01 X12.9003 Y45.7012 F120.00
G01 X12.8638 Y45.7145 F120.00
G01 X12.8546 Y45.7173 F120.00
G01 X12.8262 Y45.7245 F120.00
G01 X12.8121 Y45.7274 F120.00
G01 X12.7736 Y45.7330 F120.00
G01 X12.7396 Y45.7349 F120.00
G01 X11.2986 Y45.7351 F120.00
G01 X11.2940 Y45.7473 F120.00
G01 X11.2902 Y45.7561 F120.00
G01 X11.2439 Y45.8533 F120.00
G01 X11.1887 Y45.9458 F120.00
G01 X11.1781 Y45.9617 F120.00
G01 X11.1137 Y46.0481 F120.00
G01 X11.0416 Y46.1281 F120.00
G01 X11.0281 Y46.1416 F120.00
G01 X10.9553 Y46.2075 F120.00
G01 X10.9406 Y46.2196 F120.00
G01 X10.8539 Y46.2836 F120.00
G01 X10.7616 Y46.3392 F120.00
G01 X10.7448 Y46.3482 F120.00
G01 X10.6473 Y46.3940 F120.00
G01 X10.5460 Y46.4305 F120.00
G01 X10.5277 Y46.4361 F120.00
G01 X10.4231 Y46.4620 F120.00
G01 X10.3119 Y46.4787 F120.00
G01 X10.2976 Y46.4799 F120.00
G01 X10.1900 Y46.4850 F120.00
G01 X10.0729 Y46.4792 F120.00
G01 X9.9569 Y46.4620 F120.00
G01 X9.8431 Y46.4335 F120.00
G01 X9.7327 Y46.3940 F120.00
G01 X9.6267 Y46.3439 F120.00
G01 X9.5261 Y46.2836 F120.00
G01 X9.4394 Y46.2196 F120.00
G01 X9.4247 Y46.2075 F120.00
G01 X9.3450 Y46.1350 F120.00
G01 X9.2663 Y46.0481 F120.00
G01 X9.1964 Y45.9539 F120.00
G01 X9.1408 Y45.8616 F120.00
G01 X9.1318 Y45.8448 F120.00
G01 X9.0860 Y45.7473 F120.00
G01 X9.0495 Y45.6460 F120.00
G01 X9.0439 Y45.6277 F120.00
G01 X9.0201 Y45.5325 F120.00
G01 X9.0163 Y45.5137 F120.00
G01 X9.0008 Y45.4071 F120.00
G01 X8.9950 Y45.2900 F120.00
G01 X9.0008 Y45.1729 F120.00
G01 X9.0163 Y45.0663 F120.00
G01 X9.0201 Y45.0475 F120.00
G01 X9.0439 Y44.9523 F120.00
G01 X9.0495 Y44.9340 F120.00
G01 X9.0860 Y44.8327 F120.00
G01 X9.1361 Y44.7267 F120.00
G01 X9.1964 Y44.6261 F120.00
G01 X9.2663 Y44.5319 F120.00
G01 X9.3450 Y44.4450 F120.00
G01 X9.4247 Y44.3725 F120.00
G01 X9.4394 Y44.3604 F120.00
G01 X9.5261 Y44.2964 F120.00
G01 X9.6184 Y44.2408 F120.00
G01 X9.6352 Y44.2318 F120.00
G01 X9.7239 Y44.1898 F120.00
G01 X9.7327 Y44.1860 F120.00
G01 X9.7449 Y44.1814 F120.00
G01 X9.7449 Y42.9344 F120.00
G01 X7.4656 Y40.6551 F120.00
G01 X6.2186 Y40.6551 F120.00
G01 X6.2140 Y40.6673 F120.00
G01 X6.2102 Y40.6761 F120.00
G01 X6.1682 Y40.7648 F120.00
G01 X6.1592 Y40.7816 F120.00
G01 X6.1036 Y40.8739 F120.00
G01 X6.0337 Y40.9681 F120.00
G01 X5.9616 Y41.0481 F120.00
G01 X5.9481 Y41.0616 F120.00
G01 X5.8681 Y41.1337 F120.00
G01 X5.7739 Y41.2036 F120.00
G01 X5.6816 Y41.2592 F120.00
G01 X5.6648 Y41.2682 F120.00
G01 X5.5673 Y41.3140 F120.00
G01 X5.4569 Y41.3535 F120.00
G01 X5.3431 Y41.3820 F120.00
G01 X5.2366 Y41.3981 F120.00
G01 X5.2176 Y41.3999 F120.00
G01 X5.1100 Y41.4050 F120.00
G01 X4.9929 Y41.3992 F120.00
G01 X4.8863 Y41.3837 F120.00
G01 X4.8675 Y41.3799 F120.00
G01 X4.7631 Y41.3535 F120.00
G01 X4.6616 Y41.3175 F120.00
G01 X4.6439 Y41.3102 F120.00
G01 X4.5467 Y41.2639 F120.00
G01 X4.4461 Y41.2036 F120.00
G01 X4.3519 Y41.1337 F120.00
G01 X4.2719 Y41.0616 F120.00
G01 X4.2584 Y41.0481 F120.00
G01 X4.1863 Y40.9681 F120.00
G01 X4.1219 Y40.8817 F120.00
G01 X4.1113 Y40.8658 F120.00
G01 X4.0561 Y40.7733 F120.00
G01 X4.0060 Y40.6673 F120.00
G01 X3.9665 Y40.5569 F120.00
G01 X3.9380 Y40.4431 F120.00
G01 X3.9208 Y40.3271 F120.00
G01 X3.9150 Y40.2100 F120.00
G01 X3.9208 Y40.0929 F120.00
G01 X3.9380 Y39.9769 F120.00
G01 X3.9665 Y39.8631 F120.00
G01 X4.0060 Y39.7527 F120.00
G01 X4.0561 Y39.6467 F120.00
G01 X4.1164 Y39.5461 F120.00
G01 X4.1863 Y39.4519 F120.00
G01 X4.2650 Y39.3650 F120.00
G01 X4.3519 Y39.2863 F120.00
G01 X4.4461 Y39.2164 F120.00
G01 X4.5467 Y39.1561 F120.00
G01 X4.6527 Y39.1060 F120.00
G01 X4.7631 Y39.0665 F120.00
G01 X4.8769 Y39.0380 F120.00
G01 X4.9929 Y39.0208 F120.00
G01 X5.1100 Y39.0150 F120.00
G01 X5.2271 Y39.0208 F120.00
G01 X5.3431 Y39.0380 F120.00
G01 X5.4569 Y39.0665 F120.00
G01 X5.5673 Y39.1060 F120.00
G01 X5.6733 Y39.1561 F120.00
G01 X5.7739 Y39.2164 F120.00
G01 X5.8681 Y39.2863 F120.00
G01 X5.9550 Y39.3650 F120.00
G01 X6.0337 Y39.4519 F120.00
G01 X6.1036 Y39.5461 F120.00
G01 X6.1639 Y39.6467 F120.00
G01 X6.2102 Y39.7439 F120.00
G01 X6.2140 Y39.7527 F120.00
G01 X6.2186 Y39.7649 F120.00
G00 Z2.0000
G00 X6.0509 Y41.7199
G01 F60.00
G01 Z-0.0400
G01 F120.00
G01 X6.0829 Y41.7005 F120.00
G01 X6.1147 Y41.6792 F120.00
G01 X6.2243 Y41.5979 F120.00
G01 X6.2392 Y41.5860 F120.00
G01 X6.2682 Y41.5610 F120.00
G01 X6.3549 Y41.4820 F120.00
G01 X6.3820 Y41.4549 F120.00
G01 X6.3950 Y41.4409 F120.00
G01 X6.4736 Y41.3539 F120.00
G01 X6.4979 Y41.3243 F120.00
G01 X6.5606 Y41.2401 F120.00
G01 X7.2233 Y41.2401 F120.00
G01 X9.1599 Y43.1767 F120.00
G01 X9.1599 Y43.8394 F120.00
G01 X9.0757 Y43.9021 F120.00
G01 X9.0461 Y43.9264 F120.00
G01 X8.9591 Y44.0050 F120.00
G01 X8.9451 Y44.0180 F120.00
G01 X8.9200 Y44.0430 F120.00
G01 X8.8949 Y44.0180 F120.00
G01 X8.8809 Y44.0050 F120.00
G01 X8.7939 Y43.9264 F120.00
G01 X8.7643 Y43.9021 F120.00
G01 X8.6801 Y43.8394 F120.00
G01 X8.6799 Y43.3659 F120.00
G01 X8.6768 Y43.3031 F120.00
G01 X8.6752 Y43.2840 F120.00
G01 X8.6705 Y43.2460 F120.00
G01 X8.6638 Y43.2029 F120.00
G01 X8.6564 Y43.1653 F120.00
G01 X8.6411 Y43.1044 F120.00
G01 X8.6300 Y43.0677 F120.00
G01 X8.6088 Y43.0086 F120.00
G01 X8.5942 Y42.9732 F120.00
G01 X8.5673 Y42.9164 F120.00
G01 X8.5493 Y42.8826 F120.00
G01 X8.5270 Y42.8450 F120.00
G01 X8.5065 Y42.8127 F120.00
G01 X8.4957 Y42.7969 F120.00
G01 X8.4699 Y42.7617 F120.00
G01 X8.4583 Y42.7464 F120.00
G01 X8.4340 Y42.7168 F120.00
G01 X8.3918 Y42.6703 F120.00
G01 X7.7297 Y42.0082 F120.00
G01 X7.6975 Y41.9787 F120.00
G01 X7.6685 Y41.9537 F120.00
G01 X7.6536 Y41.9417 F120.00
G01 X7.6186 Y41.9155 F120.00
G01 X7.5873 Y41.8935 F120.00
G01 X7.5713 Y41.8830 F120.00
G01 X7.5339 Y41.8604 F120.00
G01 X7.5174 Y41.8507 F120.00
G01 X7.4836 Y41.8327 F120.00
G01 X7.4268 Y41.8058 F120.00
G01 X7.3914 Y41.7912 F120.00
G01 X7.3735 Y41.7845 F120.00
G01 X7.3323 Y41.7700 F120.00
G01 X7.3140 Y41.7642 F120.00
G01 X7.2956 Y41.7589 F120.00
G01 X7.2533 Y41.7481 F120.00
G01 X7.2160 Y41.7397 F120.00
G01 X7.1971 Y41.7362 F120.00
G01 X7.1350 Y41.7269 F120.00
G01 X7.0969 Y41.7232 F120.00
G01 X7.0778 Y41.7220 F120.00
G01 X7.0341 Y41.7201 F120.00
G01 X7.0150 Y41.7199 F120.00
G01 X6.0509 Y41.7199 F120.00
G00 Z2.0000
G00 X3.9426 Y41.1310
G01 F60.00
G01 Z-0.0400
G01 F120.00
G01 X3.9527 Y41.1443 F120.00
G01 X3.9679 Y41.1628 F120.00
G01 X4.0417 Y41.2445 F120.00
G01 X4.0582 Y41.2618 F120.00
G01 X4.0755 Y41.2783 F120.00
G01 X4.1482 Y41.3442 F120.00
G01 X4.1572 Y41.3521 F120.00
G01 X4.1757 Y41.3673 F120.00
G01 X4.2737 Y41.4400 F120.00
G01 X4.2836 Y41.4468 F120.00
G01 X4.3038 Y41.4596 F120.00
G01 X4.3880 Y41.5101 F120.00
G01 X4.4088 Y41.5219 F120.00
G01 X4.4302 Y41.5326 F120.00
G01 X4.5298 Y41.5796 F120.00
G01 X4.5408 Y41.5843 F120.00
G01 X4.5631 Y41.5929 F120.00
G01 X4.6555 Y41.6259 F120.00
G01 X4.6782 Y41.6334 F120.00
G01 X4.7013 Y41.6398 F120.00
G01 X4.7965 Y41.6637 F120.00
G01 X4.8198 Y41.6689 F120.00
G01 X4.8434 Y41.6730 F120.00
G01 X4.9405 Y41.6874 F120.00
G01 X4.9642 Y41.6903 F120.00
G01 X4.9881 Y41.6921 F120.00
G01 X5.0861 Y41.6969 F120.00
G01 X5.0980 Y41.6974 F120.00
G01 X5.1220 Y41.6974 F120.00
G01 X5.2319 Y41.6921 F120.00
G01 X5.2558 Y41.6903 F120.00
G01 X5.2795 Y41.6874 F120.00
G01 X5.3766 Y41.6730 F120.00
G01 X5.4002 Y41.6689 F120.00
G01 X5.4235 Y41.6637 F120.00
G01 X5.5187 Y41.6398 F120.00
G01 X5.5418 Y41.6334 F120.00
G01 X5.5532 Y41.6298 F120.00
G01 X5.6569 Y41.5929 F120.00
G01 X5.6792 Y41.5843 F120.00
G01 X5.7011 Y41.5746 F120.00
G01 X5.7898 Y41.5326 F120.00
G01 X5.8112 Y41.5219 F120.00
G01 X5.8217 Y41.5161 F120.00
G01 X5.9264 Y41.4533 F120.00
G01 X5.9364 Y41.4468 F120.00
G01 X5.9560 Y41.4330 F120.00
G01 X6.0348 Y41.3746 F120.00
G01 X6.0537 Y41.3599 F120.00
G01 X6.0718 Y41.3442 F120.00
G01 X6.1445 Y41.2783 F120.00
G01 X6.1533 Y41.2702 F120.00
G01 X6.1702 Y41.2533 F120.00
G01 X6.2521 Y41.1628 F120.00
G01 X6.2673 Y41.1443 F120.00
G01 X6.2746 Y41.1348 F120.00
G01 X6.3330 Y41.0560 F120.00
G01 X6.3468 Y41.0364 F120.00
G01 X6.3596 Y41.0162 F120.00
G01 X6.4007 Y40.9476 F120.00
G01 X7.3445 Y40.9476 F120.00
G01 X9.4524 Y43.0555 F120.00
G01 X9.4524 Y43.9993 F120.00
G01 X9.3838 Y44.0404 F120.00
G01 X9.3636 Y44.0532 F120.00
G01 X9.3440 Y44.0670 F120.00
G01 X9.2652 Y44.1254 F120.00
G01 X9.2557 Y44.1327 F120.00
G01 X9.2372 Y44.1479 F120.00
G01 X9.1467 Y44.2298 F120.00
G01 X9.1382 Y44.2382 F120.00
G01 X9.1217 Y44.2555 F120.00
G01 X9.0558 Y44.3282 F120.00
G01 X9.0479 Y44.3372 F120.00
G01 X9.0327 Y44.3557 F120.00
G01 X8.9600 Y44.4537 F120.00
G01 X8.9467 Y44.4736 F120.00
G01 X8.9200 Y44.5178 F120.00
G01 X8.8933 Y44.4736 F120.00
G01 X8.8800 Y44.4537 F120.00
G01 X8.8073 Y44.3557 F120.00
G01 X8.7921 Y44.3372 F120.00
G01 X8.7842 Y44.3282 F120.00
G01 X8.7183 Y44.2555 F120.00
G01 X8.7018 Y44.2382 F120.00
G01 X8.6933 Y44.2298 F120.00
G01 X8.6028 Y44.1479 F120.00
G01 X8.5843 Y44.1327 F120.00
G01 X8.5748 Y44.1254 F120.00
G01 X8.4960 Y44.0670 F120.00
G01 X8.4764 Y44.0532 F120.00
G01 X8.4562 Y44.0404 F120.00
G01 X8.3876 Y43.9993 F120.00
G01 X8.3876 Y43.3850 F120.00
G01 X8.3870 Y43.3611 F120.00
G01 X8.3858 Y43.3366 F120.00
G01 X8.3851 Y43.3246 F120.00
G01 X8.3828 Y43.3008 F120.00
G01 X8.3756 Y43.2529 F120.00
G01 X8.3735 Y43.2411 F120.00
G01 X8.3682 Y43.2178 F120.00
G01 X8.3622 Y43.1939 F120.00
G01 X8.3559 Y43.1709 F120.00
G01 X8.3484 Y43.1482 F120.00
G01 X8.3401 Y43.1250 F120.00
G01 X8.3315 Y43.1027 F120.00
G01 X8.3268 Y43.0917 F120.00
G01 X8.3060 Y43.0479 F120.00
G01 X8.2948 Y43.0268 F120.00
G01 X8.2698 Y42.9852 F120.00
G01 X8.2565 Y42.9653 F120.00
G01 X8.2277 Y42.9264 F120.00
G01 X8.2125 Y42.9079 F120.00
G01 X8.1799 Y42.8720 F120.00
G01 X7.5366 Y42.2284 F120.00
G01 X7.5193 Y42.2119 F120.00
G01 X7.4921 Y42.1875 F120.00
G01 X7.4829 Y42.1798 F120.00
G01 X7.4641 Y42.1651 F120.00
G01 X7.4347 Y42.1435 F120.00
G01 X7.4148 Y42.1302 F120.00
G01 X7.3835 Y42.1113 F120.00
G01 X7.3627 Y42.0995 F120.00
G01 X7.3413 Y42.0887 F120.00
G01 X7.3192 Y42.0782 F120.00
G01 X7.3083 Y42.0732 F120.00
G01 X7.2862 Y42.0641 F120.00
G01 X7.2405 Y42.0478 F120.00
G01 X7.2291 Y42.0441 F120.00
G01 X7.2061 Y42.0378 F120.00
G01 X7.1822 Y42.0318 F120.00
G01 X7.1589 Y42.0265 F120.00
G01 X7.1353 Y42.0225 F120.00
G01 X7.1110 Y42.0189 F120.00
G01 X7.0992 Y42.0172 F120.00
G01 X7.0754 Y42.0149 F120.00
G01 X7.0270 Y42.0125 F120.00
G01 X4.7805 Y42.0124 F120.00
G01 X3.9426 Y41.1745 F120.00
G01 X3.9426 Y41.1310 F120.00
G00 Z2.0000
G00 X4.1890 Y39.0426
G01 F60.00
G01 Z-0.0400
G01 F120.00
G01 X4.1757 Y39.0527 F120.00
G01 X4.1572 Y39.0679 F120.00
G01 X4.0755 Y39.1417 F120.00
G01 X4.0582 Y39.1582 F120.00
G01 X4.0417 Y39.1755 F120.00
G01 X3.9679 Y39.2572 F120.00
G01 X3.9527 Y39.2757 F120.00
G01 X3.9426 Y39.2890 F120.00
G01 X3.9426 Y39.2455 F120.00
G01 X4.1455 Y39.0426 F120.00
G01 X4.1890 Y39.0426 F120.00
G00 Z2.0000
G00 X2.7350 Y38.6436
G01 F60.00
G01 Z-0.0400
G01 F120.00
G01 X2.7735 Y38.5859 F120.00
G01 X3.4859 Y37.8735 F120.00
G01 X3.5769 Y37.8127 F120.00
G01 X3.6780 Y37.7708 F120.00
G01 X3.7853 Y37.7495 F120.00
G01 X10.8797 Y37.7495 F120.00
G01 X10.9870 Y37.7708 F120.00
G01 X11.0881 Y37.8127 F120.00
G01 X11.1791 Y37.8735 F120.00
G01 X12.1522 Y38.8466 F120.00
G01 X12.1635 Y38.8570 F120.00
G01 X12.1756 Y38.8666 F120.00
G01 X12.2214 Y38.8980 F120.00
G01 X12.2346 Y38.9059 F120.00
G01 X12.2484 Y38.9126 F120.00
G01 X12.2618 Y38.9180 F120.00
G01 X12.2753 Y38.9223 F120.00
G01 X12.2890 Y38.9256 F120.00
G01 X12.3029 Y38.9279 F120.00
G01 X12.3711 Y38.9369 F120.00
G01 X12.3898 Y38.9385 F120.00
G01 X12.4086 Y38.9382 F120.00
G01 X12.4226 Y38.9369 F120.00
G01 X12.6273 Y38.9045 F120.00
G01 X12.8327 Y38.9045 F120.00
G01 X13.0357 Y38.9366 F120.00
G01 X13.2311 Y39.0001 F120.00
G01 X13.4142 Y39.0934 F120.00
G01 X13.5805 Y39.2142 F120.00
G01 X13.7258 Y39.3595 F120.00
G01 X13.8466 Y39.5258 F120.00
G01 X13.9399 Y39.7089 F120.00
G01 X14.0034 Y39.9043 F120.00
G01 X14.0355 Y40.1073 F120.00
G01 X14.0355 Y40.3128 F120.00
G01 X14.0034 Y40.5157 F120.00
G01 X13.9399 Y40.7111 F120.00
G01 X13.8466 Y40.8942 F120.00
G01 X13.7258 Y41.0605 F120.00
G01 X13.5805 Y41.2058 F120.00
G01 X13.4142 Y41.3266 F120.00
G01 X13.2311 Y41.4199 F120.00
G01 X13.0357 Y41.4834 F120.00
G01 X12.8328 Y41.5155 F120.00
G01 X12.6272 Y41.5155 F120.00
G01 X12.4243 Y41.4834 F120.00
G01 X12.2289 Y41.4199 F120.00
G01 X12.0458 Y41.3266 F120.00
G01 X11.9492 Y41.2564 F120.00
G01 X11.8795 Y41.2058 F120.00
G01 X11.7342 Y41.0605 F120.00
G01 X11.6134 Y40.8942 F120.00
G01 X11.5201 Y40.7111 F120.00
G01 X11.4566 Y40.5157 F120.00
G01 X11.4245 Y40.3128 F120.00
G01 X11.4245 Y40.1072 F120.00
G01 X11.4561 Y39.9077 F120.00
G01 X11.4578 Y39.8942 F120.00
G01 X11.4585 Y39.8806 F120.00
G01 X11.4569 Y39.8210 F120.00
G01 X11.4549 Y39.8018 F120.00
G01 X11.4522 Y39.7875 F120.00
G01 X11.4469 Y39.7689 F120.00
G01 X11.4418 Y39.7554 F120.00
G01 X11.4356 Y39.7422 F120.00
G01 X11.3999 Y39.6766 F120.00
G01 X11.3928 Y39.6647 F120.00
G01 X11.3876 Y39.6570 F120.00
G01 X11.3791 Y39.6459 F120.00
G01 X11.3666 Y39.6322 F120.00
G01 X10.6846 Y38.9503 F120.00
G01 X10.6768 Y38.9433 F120.00
G01 X10.6522 Y38.9233 F120.00
G01 X10.6367 Y38.9121 F120.00
G01 X10.6286 Y38.9070 F120.00
G01 X10.6159 Y38.9002 F120.00
G01 X10.6072 Y38.8962 F120.00
G01 X10.5939 Y38.8910 F120.00
G01 X10.5087 Y38.8660 F120.00
G01 X10.4951 Y38.8632 F120.00
G01 X10.4859 Y38.8619 F120.00
G01 X10.4767 Y38.8610 F120.00
G01 X10.4628 Y38.8605 F120.00
G01 X6.3598 Y38.8607 F120.00
G01 X6.3457 Y38.8619 F120.00
G01 X6.3270 Y38.8651 F120.00
G01 X6.2600 Y38.8817 F120.00
G01 X6.2422 Y38.8875 F120.00
G01 X6.2250 Y38.8950 F120.00
G01 X6.2087 Y38.9041 F120.00
G01 X6.2008 Y38.9092 F120.00
G01 X6.1896 Y38.9176 F120.00
G01 X6.1755 Y38.9300 F120.00
G01 X6.1254 Y38.9787 F120.00
G01 X6.1154 Y38.9892 F120.00
G01 X6.1091 Y38.9966 F120.00
G01 X6.1005 Y39.0083 F120.00
